rechim25/vla-teleop-franka-v2/franka_xr_teleop/teleop_trace/run_01/rt_trace.csv
timestamp_ns,loop_dt_ns,callback_period_ns,target_age_ns,teleop_state,control_mode,teleop_active,target_fresh,apply_motion,fault_packet_timeout,fault_jump_rejected,fault_workspace_clamped,fault_robot_not_ready,fault_ik_rejected,max_step,rt_alpha,q_0,q_1,q_2,q_3,q_4,q_5,q_6,dq_0,dq_1,dq_2,dq_3,dq_4,dq_5,dq_6,q_d_0,q_d_1,q_d_2,q_d_3,q_d_4,q_d_5,q_d_6,q_planned_0,q_planned_1,q_planned_2,q_planned_3,q_planned_4,q_planned_5,q_planned_6,q_cmd_0,q_cmd_1,q_cmd_2,q_cmd_3,q_cmd_4,q_cmd_5,q_cmd_6,target_delta_0,target_delta_1,target_delta_2,target_delta_3,target_delta_4,target_delta_5,target_delta_6,filtered_delta_0,filtered_delta_1,filtered_delta_2,filtered_delta_3,filtered_delta_4,filtered_delta_5,filtered_delta_6,command_delta_0,command_delta_1,command_delta_2,command_delta_3,command_delta_4,command_delta_5,command_delta_6,clamp_saturated_0,clamp_saturated_1,clamp_saturated_2,clamp_saturated_3,clamp_saturated_4,clamp_saturated_5,clamp_saturated_6,max_abs_target_delta,max_abs_filtered_delta,max_abs_command_delta
5198773154202,0,1000,2945876,0,0,0,0,0,1,0,0,0,0,0.000000260,0.180000000,-0.000689945,-0.784703069,-0.000371968,-2.356775810,-0.000711051,1.570915813,0.785729026,0.000220702,0.001038733,-0.000036318,0.000277995,-0.000182350,-0.000142061,-0.001125406,-0.000000001,-0.785398159,-0.000000001,-2.356194490,-0.000000000,1.570796331,0.785398160,-0.000689945,-0.784706463,-0.000373638,-2.356777480,-0.000709728,1.570916179,0.785729119,-0.000000001,-0.785398159,-0.000000001,-2.356194490,-0.000000000,1.570796331,0.785398160,0.000000000,0.000000000,0.000000000,0.000000000,0.000000000,0.000000000,0.000000000,0.000000000,0.000000000,0.000000000,0.000000000,0.000000000,0.000000000,0.000000000,0.000000000,0.000000000,0.000000000,0.000000000,0.000000000,0.000000000,0.000000000,0,0,0,0,0,0,0,0.000000000,0.000000000,0.000000000
5198783148032,1029440,1000000,12939706,0,0,0,0,0,1,0,0,0,0,0.000260000,0.180000000,-0.000688263,-0.784706697,-0.000373638,-2.356777480,-0.000711763,1.570913358,0.785734188,0.000479846,-0.000126327,-0.000475800,0.000015797,-0.000346541,0.000200455,0.000759628,-0.000000001,-0.785398159,-0.000000001,-2.356194490,-0.000000000,1.570796331,0.785398160,-0.000689945,-0.784706463,-0.000373638,-2.356777480,-0.000709728,1.570916179,0.785729119,-0.000000001,-0.785398159,-0.000000001,-2.356194490,-0.000000000,1.570796331,0.785398160,0.000000000,0.000000000,0.000000000,0.000000000,0.000000000,0.000000000,0.000000000,0.000000000,0.000000000,0.000000000,0.000000000,0.000000000,0.000000000,0.000000000,0.000000000,0.000000000,0.000000000,0.000000000,0.000000000,0.000000000,0.000000000,0,0,0,0,0,0,0,0.000000000,0.000000000,0.000000000
5198793101851,994249,1000000,6167516,0,0,0,0,0,1,0,0,0,0,0.000260000,0.180000000,-0.000689942,-0.784708368,-0.000371968,-2.356779429,-0.000709016,1.570915826,0.785729041,0.000564600,-0.001053353,-0.000223898,-0.000798281,0.000689086,-0.000064175,-0.001538445,-0.000000001,-0.785398159,-0.000000001,-2.356194490,-0.000000000,1.570796331,0.785398160,-0.000689944,-0.784706697,-0.000371968,-2.356777480,-0.000709016,1.570916421,0.785733120,-0.000000001,-0.785398159,-0.000000001,-2.356194490,-0.000000000,1.570796331,0.785398160,0.000000000,0.000000000,0.000000000,0.000000000,0.000000000,0.000000000,0.000000000,0.000000000,0.000000000,0.000000000,0.000000000,0.000000000,0.000000000,0.000000000,0.000000000,0.000000000,0.000000000,0.000000000,0.000000000,0.000000000,0.000000000,0,0,0,0,0,0,0,0.000000000,0.000000000,0.000000000
5198803118630,1004389,1000000,16184295,0,0,0,0,0,1,0,0,0,0,0.000260000,0.180000000,-0.000689945,-0.784705027,-0.000370297,-2.356777480,-0.000711763,1.570916538,0.785726987,-0.000120640,0.000053644,0.000796922,-0.000340930,-0.000533675,-0.000031388,-0.000486990,-0.000000001,-0.785398159,-0.000000001,-2.356194490,-0.000000000,1.570796331,0.785398160,-0.000689944,-0.784706697,-0.000371968,-2.356777480,-0.000709016,1.570916421,0.785733120,-0.000000001,-0.785398159,-0.000000001,-2.356194490,-0.000000000,1.570796331,0.785398160,0.000000000,0.000000000,0.000000000,0.000000000,0.000000000,0.000000000,0.000000000,0.000000000,0.000000000,0.000000000,0.000000000,0.000000000,0.000000000,0.000000000,0.000000000,0.000000000,0.000000000,0.000000000,0.000000000,0.000000000,0.000000000,0,0,0,0,0,0,0,0.000000000,0.000000000,0.000000000
5198813167320,1064559,1000000,9507595,0,0,0,0,0,1,0,0,0,0,0.000260000,0.180000000,-0.000689936,-0.784706697,-0.000371508,-2.356775810,-0.000711763,1.570914757,0.785731262,0.000172168,-0.000492628,-0.000381151,0.000603479,-0.000523783,-0.000319449,0.001202945,-0.000000001,-0.785398159,-0.000000001,-2.356194490,-0.000000000,1.570796331,0.785398160,-0.000689945,-0.784705027,-0.000370297,-2.356777480,-0.000711763,1.570916538,0.785726987,-0.000000001,-0.785398159,-0.000000001,-2.356194490,-0.000000000,1.570796331,0.785398160,0.000000000,0.000000000,0.000000000,0.000000000,0.000000000,0.000000000,0.000000000,0.000000000,0.000000000,0.000000000,0.000000000,0.000000000,0.000000000,0.000000000,0.000000000,0.000000000,0.000000000,0.000000000,0.000000000,0.000000000,0.000000000,0,0,0,0,0,0,0,0.000000000,0.000000000,0.000000000
5198823120609,999549,1000000,2737544,0,0,0,0,0,1,0,0,0,0,0.000260000,0.180000000,-0.000689485,-0.784708368,-0.000371968,-2.356777480,-0.000712475,1.570915826,0.785727980,-0.001211389,-0.000967784,-0.000070430,-0.000082096,-0.000539397,-0.000117267,-0.000050341,-0.000000001,-0.785398159,-0.000000001,-2.356194490,-0.000000000,1.570796331,0.785398160,-0.000689945,-0.784706697,-0.000371967,-2.356777480,-0.000709728,1.570915826,0.785728301,-0.000000001,-0.785398159,-0.000000001,-2.356194490,-0.000000000,1.570796331,0.785398160,0.000000000,0.000000000,0.000000000,0.000000000,0.000000000,0.000000000,0.000000000,0.000000000,0.000000000,0.000000000,0.000000000,0.000000000,0.000000000,0.000000000,0.000000000,0.000000000,0.000000000,0.000000000,0.000000000,0.000000000,0.000000000,0,0,0,0,0,0,0,0.000000000,0.000000000,0.000000000
5198833097849,997789,1000000,12714784,0,0,0,0,0,1,0,0,0,0,0.000260000,0.180000000,-0.000686325,-0.784705001,-0.000370297,-2.356779429,-0.000711051,1.570915825,0.785731177,0.001433739,0.000415105,0.000457730,-0.000668053,-0.000174279,-0.000073665,-0.000165178,-0.000000001,-0.785398159,-0.000000001,-2.356194490,-0.000000000,1.570796331,0.785398160,-0.000689945,-0.784706697,-0.000371967,-2.356777480,-0.000709728,1.570915826,0.785728301,-0.000000001,-0.785398159,-0.000000001,-2.356194490,-0.000000000,1.570796331,0.785398160,0.000000000,0.000000000,0.000000000,0.000000000,0.000000000,0.000000000,0.000000000,0.000000000,0.000000000,0.000000000,0.000000000,0.000000000,0.000000000,0.000000000,0.000000000,0.000000000,0.000000000,0.000000000,0.000000000,0.000000000,0.000000000,0,0,0,0,0,0,0,0.000000000,0.000000000,0.000000000
5198843111689,986759,1000000,6005034,0,0,0,0,0,1,0,0,0,0,0.000260000,0.180000000,-0.000689235,-0.784706697,-0.000370297,-2.356777480,-0.000709016,1.570917251,0.785734083,-0.000537078,-0.000290826,0.000743479,-0.000426094,0.000452258,0.000279615,0.001119974,-0.000000001,-0.785398159,-0.000000001,-2.356194490,-0.000000000,1.570796331,0.785398160,-0.000686325,-0.784706697,-0.000375587,-2.356777480,-0.000712475,1.570917251,0.785726903,-0.000000001,-0.785398159,-0.000000001,-2.356194490,-0.000000000,1.570796331,0.785398160,0.000000000,0.000000000,0.000000000,0.000000000,0.000000000,0.000000000,0.000000000,0.000000000,0.000000000,0.000000000,0.000000000,0.000000000,0.000000000,0.000000000,0.000000000,0.000000000,0.000000000,0.000000000,0.000000000,0.000000000,0.000000000,0,0,0,0,0,0,0,0.000000000,0.000000000,0.000000000
5198853122878,998039,1000000,16016223,0,0,0,0,0,1,0,0,0,0,0.000260000,0.180000000,-0.000691615,-0.784703078,-0.000373638,-2.356777480,-0.000711051,1.570915787,0.785730435,-0.000558855,0.000877247,-0.000547446,-0.000118565,0.000152629,-0.000021934,-0.000967064,-0.000000001,-0.785398159,-0.000000001,-2.356194490,-0.000000000,1.570796331,0.785398160,-0.000686325,-0.784706697,-0.000375587,-2.356777480,-0.000712475,1.570917251,0.785726903,-0.000000001,-0.785398159,-0.000000001,-2.356194490,-0.000000000,1.570796331,0.785398160,0.000000000,0.000000000,0.000000000,0.000000000,0.000000000,0.000000000,0.000000000,0.000000000,0.000000000,0.000000000,0.000000000,0.000000000,0.000000000,0.000000000,0.000000000,0.000000000,0.000000000,0.000000000,0.000000000,0.000000000,0.000000000,0,0,0,0,0,0,0,0.000000000,0.000000000,0.000000000
5198863140638,985769,1000000,9310354,0,0,0,0,0,1,0,0,0,0,0.000260000,0.180000000,-0.000689945,-0.784705027,-0.000371968,-2.356775810,-0.000711763,1.570917251,0.785733886,0.000177865,0.000372239,0.000093422,0.000369378,-0.000195567,0.000479740,0.000802631,-0.000000001,-0.785398159,-0.000000001,-2.356194490,-0.000000000,1.570796331,0.785398160,-0.000691615,-0.784703078,-0.000373638,-2.356777480,-0.000711051,1.570915787,0.785730435,-0.000000001,-0.785398159,-0.000000001,-2.356194490,-0.000000000,1.570796331,0.785398160,0.000000000,0.000000000,0.000000000,0.000000000,0.000000000,0.000000000,0.000000000,0.000000000,0.000000000,0.000000000,0.000000000,0.000000000,0.000000000,0.000000000,0.000000000,0.000000000,0.000000000,0.000000000,0.000000000,0.000000000,0.000000000,0,0,0,0,0,0,0,0.000000000,0.000000000,0.000000000
5198873115787,1008839,1000000,2562463,0,0,0,0,0,1,0,0,0,0,0.000260000,0.180000000,-0.000687577,-0.784703078,-0.000371968,-2.356775810,-0.000711763,1.570916538,0.785734775,0.000215389,0.000918082,0.000047024,0.000272152,-0.000645215,0.000141667,0.000891469,-0.000000001,-0.785398159,-0.000000001,-2.356194490,-0.000000000,1.570796331,0.785398160,-0.000688248,-0.784706697,-0.000370297,-2.356777480,-0.000709728,1.570917251,0.785729603,-0.000000001,-0.785398159,-0.000000001,-2.356194490,-0.000000000,1.570796331,0.785398160,0.000000000,0.000000000,0.000000000,0.000000000,0.000000000,0.000000000,0.000000000,0.000000000,0.000000000,0.000000000,0.000000000,0.000000000,0.000000000,0.000000000,0.000000000,0.000000000,0.000000000,0.000000000,0.000000000,0.000000000,0.000000000,0,0,0,0,0,0,0,0.000000000,0.000000000,0.000000000
5198883110046,1000179,1000000,12556722,0,0,0,0,0,1,0,0,0,0,0.000260000,0.180000000,-0.000685197,-0.784708368,-0.000370297,-2.356779429,-0.000709016,1.570912608,0.785725608,0.000710394,-0.000494082,0.000709228,-0.001315437,0.000580969,-0.000014064,-0.001251566,-0.000000001,-0.785398159,-0.000000001,-2.356194490,-0.000000000,1.570796331,0.785398160,-0.000688248,-0.784706697,-0.000370297,-2.356777480,-0.000709728,1.570917251,0.785729603,-0.000000001,-0.785398159,-0.000000001,-2.356194490,-0.000000000,1.570796331,0.785398160,0.000000000,0.000000000,0.000000000,0.000000000,0.000000000,0.000000000,0.000000000,0.000000000,0.000000000,0.000000000,0.000000000,0.000000000,0.000000000,0.000000000,0.000000000,0.000000000,0.000000000,0.000000000,0.000000000,0.000000000,0.000000000,0,0,0,0,0,0,0,0.000000000,0.000000000,0.000000000
5198893127366,970249,1000000,5849982,0,0,0,0,0,1,0,0,0,0,0.000260000,0.180000000,-0.000688274,-0.784706262,-0.000375587,-2.356775810,-0.000711763,1.570915826,0.785732815,0.000519003,-0.000530528,-0.001493113,-0.000103539,-0.000281261,-0.000087660,0.000802608,-0.000000001,-0.785398159,-0.000000001,-2.356194490,-0.000000000,1.570796331,0.785398160,-0.000689907,-0.784706697,-0.000371968,-2.356775810,-0.000709728,1.570917211,0.785728760,-0.000000001,-0.785398159,-0.000000001,-2.356194490,-0.000000000,1.570796331,0.785398160,0.000000000,0.000000000,0.000000000,0.000000000,0.000000000,0.000000000,0.000000000,0.000000000,0.000000000,0.000000000,0.000000000,0.000000000,0.000000000,0.000000000,0.000000000,0.000000000,0.000000000,0.000000000,0.000000000,0.000000000,0.000000000,0,0,0,0,0,0,0,0.000000000,0.000000000,0.000000000
5198903143246,1015329,1000000,15865862,0,0,0,0,0,1,0,0,0,0,0.000260000,0.180000000,-0.000689945,-0.784703000,-0.000370297,-2.356781100,-0.000713085,1.570915114,0.785726910,-0.000173577,0.000696539,0.000541678,-0.001218519,-0.001022165,-0.000335111,-0.000531628,-0.000000001,-0.785398159,-0.000000001,-2.356194490,-0.000000000,1.570796331,0.785398160,-0.000689907,-0.784706697,-0.000371968,-2.356775810,-0.000709728,1.570917211,0.785728760,-0.000000001,-0.785398159,-0.000000001,-2.356194490,-0.000000000,1.570796331,0.785398160,0.000000000,0.000000000,0.000000000,0.000000000,0.000000000,0.000000000,0.000000000,0.000000000,0.000000000,0.000000000,0.000000000,0.000000000,0.000000000,0.000000000,0.000000000,0.000000000,0.000000000,0.000000000,0.000000000,0.000000000,0.000000000,0,0,0,0,0,0,0,0.000000000,0.000000000,0.000000000
5198913098425,1002320,1000000,9097641,0,0,0,0,0,1,0,0,0,0,0.000260000,0.180000000,-0.000688274,-0.784706697,-0.000368270,-2.356777480,-0.000711051,1.570915826,0.785733359,0.000416544,-0.000577430,0.000753747,0.000476934,-0.000139778,0.000023544,0.000704713,-0.000000001,-0.785398159,-0.000000001,-2.356194490,-0.000000000,1.570796331,0.785398160,-0.000689945,-0.784703000,-0.000370297,-2.356781100,-0.000713085,1.570915114,0.785726910,-0.000000001,-0.785398159,-0.000000001,-2.356194490,-0.000000000,1.570796331,0.785398160,0.000000000,0.000000000,0.000000000,0.000000000,0.000000000,0.000000000,0.000000000,0.000000000,0.000000000,0.000000000,0.000000000,0.000000000,0.000000000,0.000000000,0.000000000,0.000000000,0.000000000,0.000000000,0.000000000,0.000000000,0.000000000,0,0,0,0,0,0,0,0.000000000,0.000000000,0.000000000
5198923106434,985489,1000000,2383761,0,0,0,0,0,1,0,0,0,0,0.000260000,0.180000000,-0.000689944,-0.784704325,-0.000370297,-2.356777480,-0.000710440,1.570914753,0.785726315,-0.000290518,0.000289227,0.000468656,-0.000470492,-0.000035008,-0.000243197,-0.000824662,-0.000000001,-0.785398159,-0.000000001,-2.356194490,-0.000000000,1.570796331,0.785398160,-0.000688248,-0.784706697,-0.000373638,-2.356777480,-0.000712475,1.570916172,0.785732223,-0.000000001,-0.785398159,-0.000000001,-2.356194490,-0.000000000,1.570796331,0.785398160,0.000000000,0.000000000,0.000000000,0.000000000,0.000000000,0.000000000,0.000000000,0.000000000,0.000000000,0.000000000,0.000000000,0.000000000,0.000000000,0.000000000,0.000000000,0.000000000,0.000000000,0.000000000,0.000000000,0.000000000,0.000000000,0,0,0,0,0,0,0,0.000000000,0.000000000,0.000000000
5198933133324,1033959,1000000,12410651,0,0,0,0,0,1,0,0,0,0,0.000260000,0.180000000,-0.000689945,-0.784705027,-0.000371968,-2.356774139,-0.000710440,1.570917237,0.785731659,-0.000525598,0.000311640,-0.000159004,0.001505532,0.000147570,0.000336660,0.001200383,-0.000000001,-0.785398159,-0.000000001,-2.356194490,-0.000000000,1.570796331,0.785398160,-0.000688248,-0.784706697,-0.000373638,-2.356777480,-0.000712475,1.570916172,0.785732223,-0.000000001,-0.785398159,-0.000000001,-2.356194490,-0.000000000,1.570796331,0.785398160,0.000000000,0.000000000,0.000000000,0.000000000,0.000000000,0.000000000,0.000000000,0.000000000,0.000000000,0.000000000,0.000000000,0.000000000,0.000000000,0.000000000,0.000000000,0.000000000,0.000000000,0.000000000,0.000000000,0.000000000,0.000000000,0,0,0,0,0,0,0,0.000000000,0.000000000,0.000000000
5198943118753,1019859,1000000,5670760,0,0,0,0,0,1,0,0,0,0,0.000260000,0.180000000,-0.000689945,-0.784703078,-0.000373638,-2.356779429,-0.000709728,1.570911935,0.785732994,-0.000252216,0.000701002,-0.000431222,-0.000751749,0.000575271,-0.000268904,-0.000116397,-0.000000001,-0.785398159,-0.000000001,-2.356194490,-0.000000000,1.570796331,0.785398160,-0.000689945,-0.784706697,-0.000371968,-2.356777480,-0.000711051,1.570915826,0.785733015,-0.000000001,-0.785398159,-0.000000001,-2.356194490,-0.000000000,1.570796331,0.785398160,0.000000000,0.000000000,0.000000000,0.000000000,0.000000000,0.000000000,0.000000000,0.000000000,0.000000000,0.000000000,0.000000000,0.000000000,0.000000000,0.000000000,0.000000000,0.000000000,0.000000000,0.000000000,0.000000000,0.000000000,0.000000000,0,0,0,0,0,0,0,0.000000000,0.000000000,0.000000000
5198953140393,1026669,1000000,15692400,0,0,0,0,0,1,0,0,0,0,0.000260000,0.180000000,-0.000686247,-0.784705027,-0.000371968,-2.356777480,-0.000711051,1.570916421,0.785734230,0.000996165,-0.000148336,0.000124405,-0.000147739,-0.000093170,0.000004080,0.000543929,-0.000000001,-0.785398159,-0.000000001,-2.356194490,-0.000000000,1.570796331,0.785398160,-0.000689945,-0.784706697,-0.000371968,-2.356777480,-0.000711051,1.570915826,0.785733015,-0.000000001,-0.785398159,-0.000000001,-2.356194490,-0.000000000,1.570796331,0.785398160,0.000000000,0.000000000,0.000000000,0.000000000,0.000000000,0.000000000,0.000000000,0.000000000,0.000000000,0.000000000,0.000000000,0.000000000,0.000000000,0.000000000,0.000000000,0.000000000,0.000000000,0.000000000,0.000000000,0.000000000,0.000000000,0,0,0,0,0,0,0,0.000000000,0.000000000,0.000000000
5198963129093,1019029,1000000,8959400,0,0,0,0,0,1,0,0,0,0,0.000260000,0.180000000,-0.000688274,-0.784705027,-0.000375587,-2.356777480,-0.000710440,1.570915114,0.785730571,0.000775835,0.000335820,-0.001439916,-0.000310997,0.000239314,-0.000306459,0.000974051,-0.000000001,-0.785398159,-0.000000001,-2.356194490,-0.000000000,1.570796331,0.785398160,-0.000689918,-0.784706697,-0.000373638,-2.356775810,-0.000711051,1.570916499,0.785725391,-0.000000001,-0.785398159,-0.000000001,-2.356194490,-0.000000000,1.570796331,0.785398160,0.000000000,0.000000000,0.000000000,0.000000000,0.000000000,0.000000000,0.000000000,0.000000000,0.000000000,0.000000000,0.000000000,0.000000000,0.000000000,0.000000000,0.000000000,0.000000000,0.000000000,0.000000000,0.000000000,0.000000000,0.000000000,0,0,0,0,0,0,0,0.000000000,0.000000000,0.000000000
5198973093932,989269,1000000,2199520,0,0,0,0,0,1,0,0,0,0,0.000260000,0.180000000,-0.000689945,-0.784705027,-0.000370297,-2.356774139,-0.000711763,1.570914300,0.785730819,-0.000585862,0.000810645,0.000834769,0.001468661,-0.000243695,-0.000482623,-0.000639252,-0.000000001,-0.785398159,-0.000000001,-2.356194490,-0.000000000,1.570796331,0.785398160,-0.000688274,-0.784706697,-0.000371968,-2.356781100,-0.000708406,1.570916538,0.785725861,-0.000000001,-0.785398159,-0.000000001,-2.356194490,-0.000000000,1.570796331,0.785398160,0.000000000,0.000000000,0.000000000,0.000000000,0.000000000,0.000000000,0.000000000,0.000000000,0.000000000,0.000000000,0.000000000,0.000000000,0.000000000,0.000000000,0.000000000,0.000000000,0.000000000,0.000000000,0.000000000,0.000000000,0.000000000,0,0,0,0,0,0,0,0.000000000,0.000000000,0.000000000
5198983122422,1014930,1000000,12228010,0,0,0,0,0,1,0,0,0,0,0.000260000,0.180000000,-0.000689918,-0.784708368,-0.000373638,-2.356777480,-0.000710440,1.570915101,0.785734775,-0.000199526,-0.000676646,-0.000147436,0.000600541,-0.000036091,-0.000268530,0.000521855,-0.000000001,-0.785398159,-0.000000001,-2.356194490,-0.000000000,1.570796331,0.785398160,-0.000688274,-0.784706697,-0.000371968,-2.356781100,-0.000708406,1.570916538,0.785725861,-0.000000001,-0.785398159,-0.000000001,-2.356194490,-0.000000000,1.570796331,0.785398160,0.000000000,0.000000000,0.000000000,0.000000000,0.000000000,0.000000000,0.000000000,0.000000000,0.000000000,0.000000000,0.000000000,0.000000000,0.000000000,0.000000000,0.000000000,0.000000000,0.000000000,0.000000000,0.000000000,0.000000000,0.000000000,0,0,0,0,0,0,0,0.000000000,0.000000000,0.000000000
5198993149371,1032529,1000000,5531139,0,0,0,0,0,1,0,0,0,0,0.000260000,0.180000000,-0.000688271,-0.784703078,-0.000368349,-2.356775810,-0.000709016,1.570915114,0.785726569,0.000568741,0.000545875,0.001402967,0.000289872,0.000661819,-0.000324078,-0.000759476,-0.000000001,-0.785398159,-0.000000001,-2.356194490,-0.000000000,1.570796331,0.785398160,-0.000689484,-0.784705027,-0.000373638,-2.356777480,-0.000711051,1.570915114,0.785731418,-0.000000001,-0.785398159,-0.000000001,-2.356194490,-0.000000000,1.570796331,0.785398160,0.000000000,0.000000000,0.000000000,0.000000000,0.000000000,0.000000000,0.000000000,0.000000000,0.000000000,0.000000000,0.000000000,0.000000000,0.000000000,0.000000000,0.000000000,0.000000000,0.000000000,0.000000000,0.000000000,0.000000000,0.000000000,0,0,0,0,0,0,0,0.000000000,0.000000000,0.000000000
5199003122630,994398,1000000,15504398,0,0,0,0,0,1,0,0,0,0,0.000260000,0.180000000,-0.000693564,-0.784706696,-0.000371968,-2.356777480,-0.000709728,1.570915114,0.785733401,-0.001206832,-0.000290378,0.000594965,-0.000059911,0.000594377,-0.000304504,0.000603013,-0.000000001,-0.785398159,-0.000000001,-2.356194490,-0.000000000,1.570796331,0.785398160,-0.000689484,-0.784705027,-0.000373638,-2.356777480,-0.000711051,1.570915114,0.785731418,-0.000000001,-0.785398159,-0.000000001,-2.356194490,-0.000000000,1.570796331,0.785398160,0.000000000,0.000000000,0.000000000,0.000000000,0.000000000,0.000000000,0.000000000,0.000000000,0.000000000,0.000000000,0.000000000,0.000000000,0.000000000,0.000000000,0.000000000,0.000000000,0.000000000,0.000000000,0.000000000,0.000000000,0.000000000,0,0,0,0,0,0,0,0.000000000,0.000000000,0.000000000
5199013092790,997889,1000000,8750919,0,0,0,0,0,1,0,0,0,0,0.000260000,0.180000000,-0.000689945,-0.784703078,-0.000370297,-2.356777480,-0.000711051,1.570915114,0.785730515,-0.000048274,0.000709813,0.000912481,-0.000455105,-0.000307120,-0.000268856,-0.000599583,-0.000000001,-0.785398159,-0.000000001,-2.356194490,-0.000000000,1.570796331,0.785398160,-0.000689945,-0.784710038,-0.000373638,-2.356775810,-0.000710440,1.570916538,0.785735855,-0.000000001,-0.785398159,-0.000000001,-2.356194490,-0.000000000,1.570796331,0.785398160,0.000000000,0.000000000,0.000000000,0.000000000,0.000000000,0.000000000,0.000000000,0.000000000,0.000000000,0.000000000,0.000000000,0.000000000,0.000000000,0.000000000,0.000000000,0.000000000,0.000000000,0.000000000,0.000000000,0.000000000,0.000000000,0,0,0,0,0,0,0,0.000000000,0.000000000,0.000000000
5199023108020,1013089,1000000,2040529,0,0,0,0,0,1,0,0,0,0,0.000260000,0.180000000,-0.000688274,-0.784706697,-0.000371968,-2.356775810,-0.000711051,1.570912647,0.785725856,0.000717816,-0.000547751,0.000358917,0.000577341,-0.000165798,-0.000127291,-0.000966257,-0.000000001,-0.785398159,-0.000000001,-2.356194490,-0.000000000,1.570796331,0.785398160,-0.000689945,-0.784708368,-0.000373638,-2.356779429,-0.000710440,1.570915826,0.785727931,-0.000000001,-0.785398159,-0.000000001,-2.356194490,-0.000000000,1.570796331,0.785398160,0.000000000,0.000000000,0.000000000,0.000000000,0.000000000,0.000000000,0.000000000,0.000000000,0.000000000,0.000000000,0.000000000,0.000000000,0.000000000,0.000000000,0.000000000,0.000000000,0.000000000,0.000000000,0.000000000,0.000000000,0.000000000,0,0,0,0,0,0,0,0.000000000,0.000000000,0.000000000
5199033100339,1007769,1000000,12032848,0,0,0,0,0,1,0,0,0,0,0.000260000,0.180000000,-0.000689945,-0.784703078,-0.000375587,-2.356777480,-0.000713085,1.570915826,0.785733723,-0.000028288,0.000663425,-0.001682416,0.000031568,-0.000443280,-0.000029618,0.000574406,-0.000000001,-0.785398159,-0.000000001,-2.356194490,-0.000000000,1.570796331,0.785398160,-0.000689945,-0.784708368,-0.000373638,-2.356779429,-0.000710440,1.570915826,0.785727931,-0.000000001,-0.785398159,-0.000000001,-2.356194490,-0.000000000,1.570796331,0.785398160,0.000000000,0.000000000,0.000000000,0.000000000,0.000000000,0.000000000,0.000000000,0.000000000,0.000000000,0.000000000,0.000000000,0.000000000,0.000000000,0.000000000,0.000000000,0.000000000,0.000000000,0.000000000,0.000000000,0.000000000,0.000000000,0,0,0,0,0,0,0,0.000000000,0.000000000,0.000000000
5199043108609,995439,1000000,5315588,0,0,0,0,0,1,0,0,0,0,0.000260000,0.180000000,-0.000689944,-0.784703078,-0.000371968,-2.356775810,-0.000711763,1.570916421,0.785728099,-0.000023489,0.001149038,-0.000009260,0.000681223,-0.000401161,-0.000059193,-0.001028908,-0.000000001,-0.785398159,-0.000000001,-2.356194490,-0.000000000,1.570796331,0.785398160,-0.000688038,-0.784706697,-0.000371968,-2.356777480,-0.000712475,1.570917251,0.785728915,-0.000000001,-0.785398159,-0.000000001,-2.356194490,-0.000000000,1.570796331,0.785398160,0.000000000,0.000000000,0.000000000,0.000000000,0.000000000,0.000000000,0.000000000,0.000000000,0.000000000,0.000000000,0.000000000,0.000000000,0.000000000,0.000000000,0.000000000,0.000000000,0.000000000,0.000000000,0.000000000,0.000000000,0.000000000,0,0,0,0,0,0,0,0.000000000,0.000000000,0.000000000
5199053097538,999649,1000000,15304517,0,0,0,0,0,1,0,0,0,0,0.000260000,0.180000000,-0.000691615,-0.784705015,-0.000371968,-2.356774139,-0.000709016,1.570915709,0.785731750,-0.000331105,-0.000191237,-0.000043952,0.000905057,0.000699978,-0.000248563,0.000595715,-0.000000001,-0.785398159,-0.000000001,-2.356194490,-0.000000000,1.570796331,0.785398160,-0.000688038,-0.784706697,-0.000371968,-2.356777480,-0.000712475,1.570917251,0.785728915,-0.000000001,-0.785398159,-0.000000001,-2.356194490,-0.000000000,1.570796331,0.785398160,0.000000000,0.000000000,0.000000000,0.000000000,0.000000000,0.000000000,0.000000000,0.000000000,0.000000000,0.000000000,0.000000000,0.000000000,0.000000000,0.000000000,0.000000000,0.000000000,0.000000000,0.000000000,0.000000000,0.000000000,0.000000000,0,0,0,0,0,0,0,0.000000000,0.000000000,0.000000000
5199063122628,1020780,1000000,8606458,0,0,0,0,0,1,0,0,0,0,0.000260000,0.180000000,-0.000688245,-0.784706697,-0.000373638,-2.356777480,-0.000712475,1.570915826,0.785729524,-0.000012687,-0.000298908,-0.000681140,-0.000302358,-0.000576121,0.000095866,0.000227780,-0.000000001,-0.785398159,-0.000000001,-2.356194490,-0.000000000,1.570796331,0.785398160,-0.000687814,-0.784706694,-0.000371968,-2.356775810,-0.000710440,1.570915075,0.785732457,-0.000000001,-0.785398159,-0.000000001,-2.356194490,-0.000000000,1.570796331,0.785398160,0.000000000,0.000000000,0.000000000,0.000000000,0.000000000,0.000000000,0.000000000,0.000000000,0.000000000,0.000000000,0.000000000,0.000000000,0.000000000,0.000000000,0.000000000,0.000000000,0.000000000,0.000000000,0.000000000,0.000000000,0.000000000,0,0,0,0,0,0,0,0.000000000,0.000000000,0.000000000
5199073089887,991319,1000000,1851567,0,0,0,0,0,1,0,0,0,0,0.000260000,0.180000000,-0.000689918,-0.784706694,-0.000371968,-2.356774139,-0.000709728,1.570916187,0.785730572,-0.000038552,-0.000162814,0.000103400,0.001043759,0.000323305,0.000456821,0.000238105,-0.000000001,-0.785398159,-0.000000001,-2.356194490,-0.000000000,1.570796331,0.785398160,-0.000689704,-0.784708333,-0.000373638,-2.356777480,-0.000710440,1.570915075,0.785733724,-0.000000001,-0.785398159,-0.000000001,-2.356194490,-0.000000000,1.570796331,0.785398160,0.000000000,0.000000000,0.000000000,0.000000000,0.000000000,0.000000000,0.000000000,0.000000000,0.000000000,0.000000000,0.000000000,0.000000000,0.000000000,0.000000000,0.000000000,0.000000000,0.000000000,0.000000000,0.000000000,0.000000000,0.000000000,0,0,0,0,0,0,0,0.000000000,0.000000000,0.000000000
5199083151117,1021889,1000000,11912797,0,0,0,0,0,1,0,0,0,0,0.000260000,0.180000000,-0.000689945,-0.784706697,-0.000373638,-2.356779429,-0.000711763,1.570915826,0.785729877,0.000263352,-0.000235529,-0.000509775,-0.000268533,-0.000378144,-0.000185759,0.001017540,-0.000000001,-0.785398159,-0.000000001,-2.356194490,-0.000000000,1.570796331,0.785398160,-0.000689704,-0.784708333,-0.000373638,-2.356777480,-0.000710440,1.570915075,0.785733724,-0.000000001,-0.785398159,-0.000000001,-2.356194490,-0.000000000,1.570796331,0.785398160,0.000000000,0.000000000,0.000000000,0.000000000,0.000000000,0.000000000,0.000000000,0.000000000,0.000000000,0.000000000,0.000000000,0.000000000,0.000000000,0.000000000,0.000000000,0.000000000,0.000000000,0.000000000,0.000000000,0.000000000,0.000000000,0,0,0,0,0,0,0,0.000000000,0.000000000,0.000000000
5199093119076,969789,1000000,5156036,0,0,0,0,0,1,0,0,0,0,0.000260000,0.180000000,-0.000689708,-0.784706697,-0.000373638,-2.356775810,-0.000709728,1.570916421,0.785731982,-0.000072719,0.000023526,-0.000612782,0.001073790,0.000314922,0.000172905,-0.000318754,-0.000000001,-0.785398159,-0.000000001,-2.356194490,-0.000000000,1.570796331,0.785398160,-0.000689945,-0.784703078,-0.000371968,-2.356774139,-0.000711051,1.570916538,0.785733833,-0.000000001,-0.785398159,-0.000000001,-2.356194490,-0.000000000,1.570796331,0.785398160,0.000000000,0.000000000,0.000000000,0.000000000,0.000000000,0.000000000,0.000000000,0.000000000,0.000000000,0.000000000,0.000000000,0.000000000,0.000000000,0.000000000,0.000000000,0.000000000,0.000000000,0.000000000,0.000000000,0.000000000,0.000000000,0,0,0,0,0,0,0,0.000000000,0.000000000,0.000000000
5199103126026,997019,1000000,15162986,0,0,0,0,0,1,0,0,0,0,0.000260000,0.180000000,-0.000688265,-0.784705018,-0.000371942,-2.356774139,-0.000712475,1.570915787,0.785731255,0.000297989,0.000341969,-0.000107375,0.000745789,-0.000492455,-0.000000423,0.000467392,-0.000000001,-0.785398159,-0.000000001,-2.356194490,-0.000000000,1.570796331,0.785398160,-0.000689945,-0.784703078,-0.000371968,-2.356774139,-0.000711051,1.570916538,0.785733833,-0.000000001,-0.785398159,-0.000000001,-2.356194490,-0.000000000,1.570796331,0.785398160,0.000000000,0.000000000,0.000000000,0.000000000,0.000000000,0.000000000,0.000000000,0.000000000,0.000000000,0.000000000,0.000000000,0.000000000,0.000000000,0.000000000,0.000000000,0.000000000,0.000000000,0.000000000,0.000000000,0.000000000,0.000000000,0,0,0,0,0,0,0,0.000000000,0.000000000,0.000000000
5199113118575,1023959,1000000,8431095,0,0,0,0,0,1,0,0,0,0,0.000260000,0.180000000,-0.000689235,-0.784703078,-0.000371968,-2.356775810,-0.000712475,1.570914643,0.785732338,-0.000159974,0.000609490,-0.000038044,0.000018383,-0.000456118,-0.000174428,0.000469310,-0.000000001,-0.785398159,-0.000000001,-2.356194490,-0.000000000,1.570796331,0.785398160,-0.000684652,-0.784706695,-0.000373629,-2.356779429,-0.000707694,1.570912634,0.785726163,-0.000000001,-0.785398159,-0.000000001,-2.356194490,-0.000000000,1.570796331,0.785398160,0.000000000,0.000000000,0.000000000,0.000000000,0.000000000,0.000000000,0.000000000,0.000000000,0.000000000,0.000000000,0.000000000,0.000000000,0.000000000,0.000000000,0.000000000,0.000000000,0.000000000,0.000000000,0.000000000,0.000000000,0.000000000,0,0,0,0,0,0,0,0.000000000,0.000000000,0.000000000
5199123114815,1019360,1000000,1702326,0,0,0,0,0,1,0,0,0,0,0.000260000,0.180000000,-0.000691606,-0.784705027,-0.000368349,-2.356779429,-0.000710440,1.570915114,0.785729683,-0.000904995,0.000040179,0.001590581,-0.000711474,0.000265308,-0.000460402,-0.001383145,-0.000000001,-0.785398159,-0.000000001,-2.356194490,-0.000000000,1.570796331,0.785398160,-0.000686246,-0.784701408,-0.000373638,-2.356775810,-0.000711763,1.570917250,0.785734069,-0.000000001,-0.785398159,-0.000000001,-2.356194490,-0.000000000,1.570796331,0.785398160,0.000000000,0.000000000,0.000000000,0.000000000,0.000000000,0.000000000,0.000000000,0.000000000,0.000000000,0.000000000,0.000000000,0.000000000,0.000000000,0.000000000,0.000000000,0.000000000,0.000000000,0.000000000,0.000000000,0.000000000,0.000000000,0,0,0,0,0,0,0,0.000000000,0.000000000,0.000000000
5199133095924,1001759,1000000,11683435,0,0,0,0,0,1,0,0,0,0,0.000260000,0.180000000,-0.000689945,-0.784705027,-0.000371968,-2.356777480,-0.000709016,1.570915114,0.785731406,-0.000369391,0.000866707,-0.000213250,0.000219236,0.000297275,-0.000369500,0.000559588,-0.000000001,-0.785398159,-0.000000001,-2.356194490,-0.000000000,1.570796331,0.785398160,-0.000686246,-0.784701408,-0.000373638,-2.356775810,-0.000711763,1.570917250,0.785734069,-0.000000001,-0.785398159,-0.000000001,-2.356194490,-0.000000000,1.570796331,0.785398160,0.000000000,0.000000000,0.000000000,0.000000000,0.000000000,0.000000000,0.000000000,0.000000000,0.000000000,0.000000000,0.000000000,0.000000000,0.000000000,0.000000000,0.000000000,0.000000000,0.000000000,0.000000000,0.000000000,0.000000000,0.000000000,0,0,0,0,0,0,0,0.000000000,0.000000000,0.000000000
5199143133283,980908,1000000,4996454,0,0,0,0,0,1,0,0,0,0,0.000260000,0.180000000,-0.000686324,-0.784708290,-0.000370297,-2.356777480,-0.000712475,1.570914757,0.785734103,0.001095521,-0.001033416,0.000641404,-0.000069636,-0.000802576,-0.000182534,0.000616343,-0.000000001,-0.785398159,-0.000000001,-2.356194490,-0.000000000,1.570796331,0.785398160,-0.000688011,-0.784705027,-0.000371968,-2.356775810,-0.000709728,1.570914055,0.785727376,-0.000000001,-0.785398159,-0.000000001,-2.356194490,-0.000000000,1.570796331,0.785398160,0.000000000,0.000000000,0.000000000,0.000000000,0.000000000,0.000000000,0.000000000,0.000000000,0.000000000,0.000000000,0.000000000,0.000000000,0.000000000,0.000000000,0.000000000,0.000000000,0.000000000,0.000000000,0.000000000,0.000000000,0.000000000,0,0,0,0,0,0,0,0.000000000,0.000000000,0.000000000
5199153114503,1000259,1000000,14977674,0,0,0,0,0,1,0,0,0,0,0.000260000,0.180000000,-0.000689708,-0.784706697,-0.000371968,-2.356781100,-0.000710440,1.570915121,0.785726321,0.000066825,-0.000597963,-0.000220649,-0.001342016,-0.000065911,-0.000029177,-0.001156245,-0.000000001,-0.785398159,-0.000000001,-2.356194490,-0.000000000,1.570796331,0.785398160,-0.000688011,-0.784705027,-0.000371968,-2.356775810,-0.000709728,1.570914055,0.785727376,-0.000000001,-0.785398159,-0.000000001,-2.356194490,-0.000000000,1.570796331,0.785398160,0.000000000,0.000000000,0.000000000,0.000000000,0.000000000,0.000000000,0.000000000,0.000000000,0.000000000,0.000000000,0.000000000,0.000000000,0.000000000,0.000000000,0.000000000,0.000000000,0.000000000,0.000000000,0.000000000,0.000000000,0.000000000,0,0,0,0,0,0,0,0.000000000,0.000000000,0.000000000
5199163121553,965779,1000000,8261224,0,0,0,0,0,1,0,0,0,0,0.000260000,0.180000000,-0.000689945,-0.784706697,-0.000370297,-2.356779429,-0.000710440,1.570915826,0.785732662,0.000326506,0.000278414,0.000245598,-0.000860612,-0.000021764,-0.000120375,0.000542564,-0.000000001,-0.785398159,-0.000000001,-2.356194490,-0.000000000,1.570796331,0.785398160,-0.000686247,-0.784701408,-0.000371968,-2.356781100,-0.000711051,1.570915354,0.785730105,-0.000000001,-0.785398159,-0.000000001,-2.356194490,-0.000000000,1.570796331,0.785398160,0.000000000,0.000000000,0.000000000,0.000000000,0.000000000,0.000000000,0.000000000,0.000000000,0.000000000,0.000000000,0.000000000,0.000000000,0.000000000,0.000000000,0.000000000,0.000000000,0.000000000,0.000000000,0.000000000,0.000000000,0.000000000,0,0,0,0,0,0,0,0.000000000,0.000000000,0.000000000
5199173121202,940028,1000000,1537423,0,0,0,0,0,1,0,0,0,0,0.000260000,0.180000000,-0.000690905,-0.784705027,-0.000371968,-2.356777480,-0.000709728,1.570914261,0.785733013,-0.000543766,0.000223926,0.000088504,0.000039372,0.000429715,-0.000325588,0.000499357,-0.000000001,-0.785398159,-0.000000001,-2.356194490,-0.000000000,1.570796331,0.785398160,-0.000691615,-0.784706697,-0.000373638,-2.356777480,-0.000711051,1.570914761,0.785732068,-0.000000001,-0.785398159,-0.000000001,-2.356194490,-0.000000000,1.570796331,0.785398160,0.000000000,0.000000000,0.000000000,0.000000000,0.000000000,0.000000000,0.000000000,0.000000000,0.000000000,0.000000000,0.000000000,0.000000000,0.000000000,0.000000000,0.000000000,0.000000000,0.000000000,0.000000000,0.000000000,0.000000000,0.000000000,0,0,0,0,0,0,0,0.000000000,0.000000000,0.000000000
5199183208982,1067899,1000000,11625203,0,0,0,0,0,1,0,0,0,0,0.000260000,0.180000000,-0.000689944,-0.784705027,-0.000371968,-2.356779429,-0.000711763,1.570916780,0.785726662,-0.000123208,0.000495800,0.000026118,-0.001218530,-0.000486914,0.000556888,-0.001121919,-0.000000001,-0.785398159,-0.000000001,-2.356194490,-0.000000000,1.570796331,0.785398160,-0.000691615,-0.784706697,-0.000373638,-2.356777480,-0.000711051,1.570914761,0.785732068,-0.000000001,-0.785398159,-0.000000001,-2.356194490,-0.000000000,1.570796331,0.785398160,0.000000000,0.000000000,0.000000000,0.000000000,0.000000000,0.000000000,0.000000000,0.000000000,0.000000000,0.000000000,0.000000000,0.000000000,0.000000000,0.000000000,0.000000000,0.000000000,0.000000000,0.000000000,0.000000000,0.000000000,0.000000000,0,0,0,0,0,0,0,0.000000000,0.000000000,0.000000000
5199193114601,963788,1000000,4806823,0,0,0,0,0,1,0,0,0,0,0.000260000,0.180000000,-0.000689945,-0.784707666,-0.000371968,-2.356775810,-0.000710440,1.570917251,0.785734918,-0.000022533,-0.000798119,-0.000099596,0.000752129,0.000222038,0.000250164,0.000937391,-0.000000001,-0.785398159,-0.000000001,-2.356194490,-0.000000000,1.570796331,0.785398160,-0.000689945,-0.784705027,-0.000373638,-2.356779429,-0.000709728,1.570915824,0.785735488,-0.000000001,-0.785398159,-0.000000001,-2.356194490,-0.000000000,1.570796331,0.785398160,0.000000000,0.000000000,0.000000000,0.000000000,0.000000000,0.000000000,0.000000000,0.000000000,0.000000000,0.000000000,0.000000000,0.000000000,0.000000000,0.000000000,0.000000000,0.000000000,0.000000000,0.000000000,0.000000000,0.000000000,0.000000000,0,0,0,0,0,0,0,0.000000000,0.000000000,0.000000000
5199203233471,1109199,1000000,14925693,0,0,0,0,0,1,0,0,0,0,0.000260000,0.180000000,-0.000687564,-0.784706697,-0.000370297,-2.356777480,-0.000709016,1.570916486,0.785730756,-0.000017209,-0.000770443,0.000735767,-0.000526484,0.000507121,0.000082047,-0.000808410,-0.000000001,-0.785398159,-0.000000001,-2.356194490,-0.000000000,1.570796331,0.785398160,-0.000689945,-0.784705027,-0.000373638,-2.356779429,-0.000709728,1.570915824,0.785735488,-0.000000001,-0.785398159,-0.000000001,-2.356194490,-0.000000000,1.570796331,0.785398160,0.000000000,0.000000000,0.000000000,0.000000000,0.000000000,0.000000000,0.000000000,0.000000000,0.000000000,0.000000000,0.000000000,0.000000000,0.000000000,0.000000000,0.000000000,0.000000000,0.000000000,0.000000000,0.000000000,0.000000000,0.000000000,0,0,0,0,0,0,0,0.000000000,0.000000000,0.000000000
5199213095000,970289,1000000,8063292,0,0,0,0,0,1,0,0,0,0,0.000260000,0.180000000,-0.000691378,-0.784706697,-0.000370297,-2.356775810,-0.000711763,1.570914767,0.785733861,-0.000697395,-0.000439081,0.000616701,0.000331700,-0.000358906,-0.000159216,-0.000047731,-0.000000001,-0.785398159,-0.000000001,-2.356194490,-0.000000000,1.570796331,0.785398160,-0.000688038,-0.784705027,-0.000371968,-2.356779429,-0.000711763,1.570917233,0.785731591,-0.000000001,-0.785398159,-0.000000001,-2.356194490,-0.000000000,1.570796331,0.785398160,0.000000000,0.000000000,0.000000000,0.000000000,0.000000000,0.000000000,0.000000000,0.000000000,0.000000000,0.000000000,0.000000000,0.000000000,0.000000000,0.000000000,0.000000000,0.000000000,0.000000000,0.000000000,0.000000000,0.000000000,0.000000000,0,0,0,0,0,0,0,0.000000000,0.000000000,0.000000000
5199223108200,1010589,1000000,1352642,1,0,0,0,0,0,0,0,0,0,0.000260000,0.180000000,-0.000686144,-0.784706697,-0.000370297,-2.356775810,-0.000709016,1.570915826,0.785729044,0.000243846,-0.000247448,0.000770527,0.000661250,0.000599524,-0.000146952,-0.001095684,-0.000000001,-0.785398159,-0.000000001,-2.356194490,-0.000000000,1.570796331,0.785398160,-0.000689945,-0.784705027,-0.000373638,-2.356774139,-0.000711051,1.570915826,0.785733504,-0.000000001,-0.785398159,-0.000000001,-2.356194490,-0.000000000,1.570796331,0.785398160,0.000000000,0.000000000,0.000000000,0.000000000,0.000000000,0.000000000,0.000000000,0.000000000,0.000000000,0.000000000,0.000000000,0.000000000,0.000000000,0.000000000,0.000000000,0.000000000,0.000000000,0.000000000,0.000000000,0.000000000,0.000000000,0,0,0,0,0,0,0,0.000000000,0.000000000,0.000000000
5199233088889,1000079,1000000,11333331,1,0,0,0,0,0,0,0,0,0,0.000260000,0.180000000,-0.000691614,-0.784705027,-0.000371968,-2.356777480,-0.000711051,1.570915822,0.785729136,-0.000898671,0.000099982,-0.000104490,-0.000089873,-0.000070093,-0.000144139,-0.000428336,-0.000000001,-0.785398159,-0.000000001,-2.356194490,-0.000000000,1.570796331,0.785398160,-0.000689945,-0.784705027,-0.000373638,-2.356774139,-0.000711051,1.570915826,0.785733504,-0.000000001,-0.785398159,-0.000000001,-2.356194490,-0.000000000,1.570796331,0.785398160,0.000000000,0.000000000,0.000000000,0.000000000,0.000000000,0.000000000,0.000000000,0.000000000,0.000000000,0.000000000,0.000000000,0.000000000,0.000000000,0.000000000,0.000000000,0.000000000,0.000000000,0.000000000,0.000000000,0.000000000,0.000000000,0,0,0,0,0,0,0,0.000000000,0.000000000,0.000000000
5199243171949,1067259,1000000,4691121,1,0,0,0,0,0,0,0,0,0,0.000260000,0.180000000,-0.000688273,-0.784703078,-0.000375587,-2.356777480,-0.000710440,1.570917211,0.785734774,0.000257065,0.001098625,-0.001108406,-0.000714342,0.000290435,0.000544549,0.000586661,-0.000000001,-0.785398159,-0.000000001,-2.356194490,-0.000000000,1.570796331,0.785398160,-0.000689708,-0.784705027,-0.000373638,-2.356775810,-0.000709728,1.570915826,0.785726907,-0.000000001,-0.785398159,-0.000000001,-2.356194490,-0.000000000,1.570796331,0.785398160,0.000000000,0.000000000,0.000000000,0.000000000,0.000000000,0.000000000,0.000000000,0.000000000,0.000000000,0.000000000,0.000000000,0.000000000,0.000000000,0.000000000,0.000000000,0.000000000,0.000000000,0.000000000,0.000000000,0.000000000,0.000000000,0,0,0,0,0,0,0,0.000000000,0.000000000,0.000000000
5199253117129,1006190,1000000,14636301,1,0,0,0,0,0,0,0,0,0,0.000260000,0.180000000,-0.000689936,-0.784705027,-0.000373638,-2.356777480,-0.000710440,1.570915316,0.785727026,-0.000035712,0.000095847,-0.001086951,-0.000121300,0.000447498,-0.000025938,-0.000492566,-0.000000001,-0.785398159,-0.000000001,-2.356194490,-0.000000000,1.570796331,0.785398160,-0.000689708,-0.784705027,-0.000373638,-2.356775810,-0.000709728,1.570915826,0.785726907,-0.000000001,-0.785398159,-0.000000001,-2.356194490,-0.000000000,1.570796331,0.785398160,0.000000000,0.000000000,0.000000000,0.000000000,0.000000000,0.000000000,0.000000000,0.000000000,0.000000000,0.000000000,0.000000000,0.000000000,0.000000000,0.000000000,0.000000000,0.000000000,0.000000000,0.000000000,0.000000000,0.000000000,0.000000000,0,0,0,0,0,0,0,0.000000000,0.000000000,0.000000000
5199264113537,999099,1000000,8906910,1,0,0,0,0,0,0,0,0,0,0.000260000,0.180000000,-0.000690902,-0.784705027,-0.000373638,-2.356774139,-0.000710440,1.570915826,0.785730397,-0.000536593,0.000563370,-0.000096867,0.001647709,0.000059176,-0.000126852,-0.001111298,-0.000000001,-0.785398159,-0.000000001,-2.356194490,-0.000000000,1.570796331,0.785398160,-0.000687813,-0.784706697,-0.000375587,-2.356775810,-0.000711763,1.570915770,0.785734125,-0.000000001,-0.785398159,-0.000000001,-2.356194490,-0.000000000,1.570796331,0.785398160,0.000000000,0.000000000,0.000000000,0.000000000,0.000000000,0.000000000,0.000000000,0.000000000,0.000000000,0.000000000,0.000000000,0.000000000,0.000000000,0.000000000,0.000000000,0.000000000,0.000000000,0.000000000,0.000000000,0.000000000,0.000000000,0,0,0,0,0,0,0,0.000000000,0.000000000,0.000000000
5199274097126,1014919,1000000,2166939,1,0,0,0,0,0,0,0,0,0,0.000260000,0.180000000,-0.000689936,-0.784706697,-0.000371967,-2.356777480,-0.000709728,1.570916534,0.785732107,-0.000448944,0.000128838,0.000502798,-0.000176950,0.000302601,0.000221315,0.000930522,-0.000000001,-0.785398159,-0.000000001,-2.356194490,-0.000000000,1.570796331,0.785398160,-0.000688034,-0.784706697,-0.000373612,-2.356779429,-0.000709016,1.570914997,0.785730756,-0.000000001,-0.785398159,-0.000000001,-2.356194490,-0.000000000,1.570796331,0.785398160,0.000000000,0.000000000,0.000000000,0.000000000,0.000000000,0.000000000,0.000000000,0.000000000,0.000000000,0.000000000,0.000000000,0.000000000,0.000000000,0.000000000,0.000000000,0.000000000,0.000000000,0.000000000,0.000000000,0.000000000,0.000000000,0,0,0,0,0,0,0,0.000000000,0.000000000,0.000000000
5199284094876,979489,1000000,12164689,1,0,0,0,0,0,0,0,0,0,0.000260000,0.180000000,-0.000691589,-0.784706697,-0.000370297,-2.356777480,-0.000710440,1.570914300,0.785731413,-0.001095695,-0.000446118,0.000746439,-0.000132816,0.000437679,-0.000524758,0.000463301,-0.000000001,-0.785398159,-0.000000001,-2.356194490,-0.000000000,1.570796331,0.785398160,-0.000688034,-0.784706697,-0.000373612,-2.356779429,-0.000709016,1.570914997,0.785730756,-0.000000001,-0.785398159,-0.000000001,-2.356194490,-0.000000000,1.570796331,0.785398160,0.000000000,0.000000000,0.000000000,0.000000000,0.000000000,0.000000000,0.000000000,0.000000000,0.000000000,0.000000000,0.000000000,0.000000000,0.000000000,0.000000000,0.000000000,0.000000000,0.000000000,0.000000000,0.000000000,0.000000000,0.000000000,0,0,0,0,0,0,0,0.000000000,0.000000000,0.000000000
5199294196036,1072409,1000000,5542410,1,0,0,0,0,0,0,0,0,0,0.000260000,0.180000000,-0.000691615,-0.784705027,-0.000371968,-2.356777480,-0.000711763,1.570916538,0.785728635,-0.000827387,0.000034061,0.000123545,0.000421075,-0.000836189,0.000021532,-0.001776979,-0.000000001,-0.785398159,-0.000000001,-2.356194490,-0.000000000,1.570796331,0.785398160,-0.000689944,-0.784706697,-0.000371968,-2.356775810,-0.000709016,1.570916897,0.785730664,-0.000000001,-0.785398159,-0.000000001,-2.356194490,-0.000000000,1.570796331,0.785398160,0.000000000,0.000000000,0.000000000,0.000000000,0.000000000,0.000000000,0.000000000,0.000000000,0.000000000,0.000000000,0.000000000,0.000000000,0.000000000,0.000000000,0.000000000,0.000000000,0.000000000,0.000000000,0.000000000,0.000000000,0.000000000,0,0,0,0,0,0,0,0.000000000,0.000000000,0.000000000
5199304101875,979439,1000000,15448249,1,0,0,0,0,0,0,0,0,0,0.000260000,0.180000000,-0.000688274,-0.784706697,-0.000371968,-2.356777480,-0.000711051,1.570915826,0.785729642,0.000289457,-0.000361197,0.000472829,-0.000204350,-0.000218377,0.000048284,0.000258749,-0.000000001,-0.785398159,-0.000000001,-2.356194490,-0.000000000,1.570796331,0.785398160,-0.000689944,-0.784706697,-0.000371968,-2.356775810,-0.000709016,1.570916897,0.785730664,-0.000000001,-0.785398159,-0.000000001,-2.356194490,-0.000000000,1.570796331,0.785398160,0.000000000,0.000000000,0.000000000,0.000000000,0.000000000,0.000000000,0.000000000,0.000000000,0.000000000,0.000000000,0.000000000,0.000000000,0.000000000,0.000000000,0.000000000,0.000000000,0.000000000,0.000000000,0.000000000,0.000000000,0.000000000,0,0,0,0,0,0,0,0.000000000,0.000000000,0.000000000
5199314124595,1038720,1000000,8747969,1,0,0,0,0,0,0,0,0,0,0.000260000,0.180000000,-0.000688038,-0.784706697,-0.000371968,-2.356779429,-0.000709016,1.570915472,0.785733352,0.000554816,0.000448849,0.000028341,-0.000766709,0.000569335,-0.000015651,0.000419647,-0.000000001,-0.785398159,-0.000000001,-2.356194490,-0.000000000,1.570796331,0.785398160,-0.000689945,-0.784706697,-0.000370297,-2.356777480,-0.000709016,1.570916538,0.785731177,-0.000000001,-0.785398159,-0.000000001,-2.356194490,-0.000000000,1.570796331,0.785398160,0.000000000,0.000000000,0.000000000,0.000000000,0.000000000,0.000000000,0.000000000,0.000000000,0.000000000,0.000000000,0.000000000,0.000000000,0.000000000,0.000000000,0.000000000,0.000000000,0.000000000,0.000000000,0.000000000,0.000000000,0.000000000,0,0,0,0,0,0,0,0.000000000,0.000000000,0.000000000
5199324087513,981888,1000000,1985967,1,0,0,0,0,0,0,0,0,0,0.000260000,0.180000000,-0.000688248,-0.784706697,-0.000370297,-2.356777480,-0.000709728,1.570915479,0.785728468,0.000469968,-0.000312023,0.000769801,-0.000419007,0.000315690,0.000138046,0.000078617,-0.000000001,-0.785398159,-0.000000001,-2.356194490,-0.000000000,1.570796331,0.785398160,-0.000690905,-0.784706697,-0.000373638,-2.356774139,-0.000711051,1.570916538,0.785730515,-0.000000001,-0.785398159,-0.000000001,-2.356194490,-0.000000000,1.570796331,0.785398160,0.000000000,0.000000000,0.000000000,0.000000000,0.000000000,0.000000000,0.000000000,0.000000000,0.000000000,0.000000000,0.000000000,0.000000000,0.000000000,0.000000000,0.000000000,0.000000000,0.000000000,0.000000000,0.000000000,0.000000000,0.000000000,0,0,0,0,0,0,0,0.000000000,0.000000000,0.000000000
5199334086953,1004959,1000000,11985407,1,0,0,0,0,0,0,0,0,0,0.000260000,0.180000000,-0.000689866,-0.784706697,-0.000373638,-2.356777480,-0.000710440,1.570912647,0.785735135,-0.000183140,-0.000317014,-0.000075619,-0.000201187,0.000108552,0.000031861,0.000533584,-0.000000001,-0.785398159,-0.000000001,-2.356194490,-0.000000000,1.570796331,0.785398160,-0.000690905,-0.784706697,-0.000373638,-2.356774139,-0.000711051,1.570916538,0.785730515,-0.000000001,-0.785398159,-0.000000001,-2.356194490,-0.000000000,1.570796331,0.785398160,0.000000000,0.000000000,0.000000000,0.000000000,0.000000000,0.000000000,0.000000000,0.000000000,0.000000000,0.000000000,0.000000000,0.000000000,0.000000000,0.000000000,0.000000000,0.000000000,0.000000000,0.000000000,0.000000000,0.000000000,0.000000000,0,0,0,0,0,0,0,0.000000000,0.000000000,0.000000000
5199344164863,1055949,1000000,5339358,1,0,0,0,0,0,0,0,0,0,0.000260000,0.180000000,-0.000693564,-0.784708368,-0.000370297,-2.356775810,-0.000708406,1.570915813,0.785729523,-0.001518654,-0.000788536,0.000886864,0.000254252,0.000501828,0.000019051,0.000045175,-0.000000001,-0.785398159,-0.000000001,-2.356194490,-0.000000000,1.570796331,0.785398160,-0.000691614,-0.784706697,-0.000371968,-2.356779429,-0.000711051,1.570917211,0.785731772,-0.000000001,-0.785398159,-0.000000001,-2.356194490,-0.000000000,1.570796331,0.785398160,0.000000000,0.000000000,0.000000000,0.000000000,0.000000000,0.000000000,0.000000000,0.000000000,0.000000000,0.000000000,0.000000000,0.000000000,0.000000000,0.000000000,0.000000000,0.000000000,0.000000000,0.000000000,0.000000000,0.000000000,0.000000000,0,0,0,0,0,0,0,0.000000000,0.000000000,0.000000000
5199354087172,1006769,1000000,15261667,1,0,0,0,0,0,0,0,0,0,0.000260000,0.180000000,-0.000689235,-0.784705027,-0.000371968,-2.356779429,-0.000711051,1.570915826,0.785727039,-0.000330357,0.000441524,0.000073598,-0.000916581,-0.000018677,0.000035019,-0.001272949,-0.000000001,-0.785398159,-0.000000001,-2.356194490,-0.000000000,1.570796331,0.785398160,-0.000691614,-0.784706697,-0.000371968,-2.356779429,-0.000711051,1.570917211,0.785731772,-0.000000001,-0.785398159,-0.000000001,-2.356194490,-0.000000000,1.570796331,0.785398160,0.000000000,0.000000000,0.000000000,0.000000000,0.000000000,0.000000000,0.000000000,0.000000000,0.000000000,0.000000000,0.000000000,0.000000000,0.000000000,0.000000000,0.000000000,0.000000000,0.000000000,0.000000000,0.000000000,0.000000000,0.000000000,0,0,0,0,0,0,0,0.000000000,0.000000000,0.000000000
5199364119832,999229,1000000,8570877,1,0,0,0,0,0,0,0,0,0,0.000260000,0.180000000,-0.000688265,-0.784705027,-0.000370297,-2.356779429,-0.000711051,1.570915822,0.785734933,0.000878396,0.000411623,0.000958971,-0.000906220,-0.000054738,-0.000177542,0.000708139,-0.000000001,-0.785398159,-0.000000001,-2.356194490,-0.000000000,1.570796331,0.785398160,-0.000684418,-0.784705027,-0.000370297,-2.356779429,-0.000711763,1.570916538,0.785732344,-0.000000001,-0.785398159,-0.000000001,-2.356194490,-0.000000000,1.570796331,0.785398160,0.000000000,0.000000000,0.000000000,0.000000000,0.000000000,0.000000000,0.000000000,0.000000000,0.000000000,0.000000000,0.000000000,0.000000000,0.000000000,0.000000000,0.000000000,0.000000000,0.000000000,0.000000000,0.000000000,0.000000000,0.000000000,0,0,0,0,0,0,0,0.000000000,0.000000000,0.000000000
5199374105192,979629,1000000,1827917,1,0,0,0,0,0,0,0,0,0,0.000260000,0.180000000,-0.000689945,-0.784710038,-0.000371968,-2.356777480,-0.000709728,1.570912647,0.785731659,0.000208305,-0.001398569,0.000270203,0.000176546,0.000271316,0.000027636,0.001000991,-0.000000001,-0.785398159,-0.000000001,-2.356194490,-0.000000000,1.570796331,0.785398160,-0.000693564,-0.784706697,-0.000371968,-2.356779429,-0.000711051,1.570916538,0.785727740,-0.000000001,-0.785398159,-0.000000001,-2.356194490,-0.000000000,1.570796331,0.785398160,0.000000000,0.000000000,0.000000000,0.000000000,0.000000000,0.000000000,0.000000000,0.000000000,0.000000000,0.000000000,0.000000000,0.000000000,0.000000000,0.000000000,0.000000000,0.000000000,0.000000000,0.000000000,0.000000000,0.000000000,0.000000000,0,0,0,0,0,0,0,0.000000000,0.000000000,0.000000000
5199384094551,986119,1000000,11817276,1,0,0,0,0,0,0,0,0,0,0.000260000,0.180000000,-0.000689945,-0.784706697,-0.000373638,-2.356777480,-0.000712475,1.570915826,0.785731586,-0.000268584,-0.000056805,-0.000527628,0.000209203,-0.000621702,0.000056106,-0.000419044,-0.000000001,-0.785398159,-0.000000001,-2.356194490,-0.000000000,1.570796331,0.785398160,-0.000693564,-0.784706697,-0.000371968,-2.356779429,-0.000711051,1.570916538,0.785727740,-0.000000001,-0.785398159,-0.000000001,-2.356194490,-0.000000000,1.570796331,0.785398160,0.000000000,0.000000000,0.000000000,0.000000000,0.000000000,0.000000000,0.000000000,0.000000000,0.000000000,0.000000000,0.000000000,0.000000000,0.000000000,0.000000000,0.000000000,0.000000000,0.000000000,0.000000000,0.000000000,0.000000000,0.000000000,0,0,0,0,0,0,0,0.000000000,0.000000000,0.000000000
5199394093440,1002939,1000000,5091095,1,0,0,0,0,0,0,0,0,0,0.000260000,0.180000000,-0.000691615,-0.784708368,-0.000373638,-2.356777480,-0.000711763,1.570916499,0.785730701,-0.000565147,-0.000794491,-0.000767224,0.000203141,-0.000495953,0.000170021,0.000387642,-0.000000001,-0.785398159,-0.000000001,-2.356194490,-0.000000000,1.570796331,0.785398160,-0.000688195,-0.784705027,-0.000370297,-2.356779429,-0.000710440,1.570914643,0.785724332,-0.000000001,-0.785398159,-0.000000001,-2.356194490,-0.000000000,1.570796331,0.785398160,0.000000000,0.000000000,0.000000000,0.000000000,0.000000000,0.000000000,0.000000000,0.000000000,0.000000000,0.000000000,0.000000000,0.000000000,0.000000000,0.000000000,0.000000000,0.000000000,0.000000000,0.000000000,0.000000000,0.000000000,0.000000000,0,0,0,0,0,0,0,0.000000000,0.000000000,0.000000000
5199404118980,1012199,1000000,15116635,1,0,0,0,0,0,0,0,0,0,0.000260000,0.180000000,-0.000689945,-0.784705027,-0.000368349,-2.356777480,-0.000709728,1.570915826,0.785733415,0.000252240,0.000496697,0.001035636,-0.000162816,0.000490368,-0.000240042,0.000543739,-0.000000001,-0.785398159,-0.000000001,-2.356194490,-0.000000000,1.570796331,0.785398160,-0.000688195,-0.784705027,-0.000370297,-2.356779429,-0.000710440,1.570914643,0.785724332,-0.000000001,-0.785398159,-0.000000001,-2.356194490,-0.000000000,1.570796331,0.785398160,0.000000000,0.000000000,0.000000000,0.000000000,0.000000000,0.000000000,0.000000000,0.000000000,0.000000000,0.000000000,0.000000000,0.000000000,0.000000000,0.000000000,0.000000000,0.000000000,0.000000000,0.000000000,0.000000000,0.000000000,0.000000000,0,0,0,0,0,0,0,0.000000000,0.000000000,0.000000000
5199414110239,953618,1000000,8385735,1,0,0,0,0,0,0,0,0,0,0.000260000,0.180000000,-0.000689945,-0.784706697,-0.000373638,-2.356779429,-0.000709728,1.570916538,0.785726158,-0.000391049,0.000061542,-0.000639401,-0.000713754,0.000203801,0.000150304,-0.000371207,-0.000000001,-0.785398159,-0.000000001,-2.356194490,-0.000000000,1.570796331,0.785398160,-0.000688274,-0.784708368,-0.000371968,-2.356777480,-0.000711051,1.570917963,0.785730774,-0.000000001,-0.785398159,-0.000000001,-2.356194490,-0.000000000,1.570796331,0.785398160,0.000000000,0.000000000,0.000000000,0.000000000,0.000000000,0.000000000,0.000000000,0.000000000,0.000000000,0.000000000,0.000000000,0.000000000,0.000000000,0.000000000,0.000000000,0.000000000,0.000000000,0.000000000,0.000000000,0.000000000,0.000000000,0,0,0,0,0,0,0,0.000000000,0.000000000,0.000000000
5199424093589,988369,1000000,1646075,1,0,0,0,0,0,0,0,0,0,0.000260000,0.180000000,-0.000689945,-0.784703078,-0.000368349,-2.356777480,-0.000711763,1.570915826,0.785729857,-0.000510933,0.001155781,0.001365751,0.000183128,-0.000778041,0.000063505,-0.001060806,-0.000000001,-0.785398159,-0.000000001,-2.356194490,-0.000000000,1.570796331,0.785398160,-0.000691615,-0.784706697,-0.000371968,-2.356779429,-0.000709728,1.570915114,0.785733067,-0.000000001,-0.785398159,-0.000000001,-2.356194490,-0.000000000,1.570796331,0.785398160,0.000000000,0.000000000,0.000000000,0.000000000,0.000000000,0.000000000,0.000000000,0.000000000,0.000000000,0.000000000,0.000000000,0.000000000,0.000000000,0.000000000,0.000000000,0.000000000,0.000000000,0.000000000,0.000000000,0.000000000,0.000000000,0,0,0,0,0,0,0,0.000000000,0.000000000,0.000000000
5199434071739,992369,1000000,11624225,1,0,0,0,0,0,0,0,0,0,0.000260000,0.180000000,-0.000689945,-0.784706697,-0.000370297,-2.356777480,-0.000710440,1.570914766,0.785731363,-0.000551386,-0.000516000,0.000409593,0.000406845,-0.000139779,0.000051563,0.001064591,-0.000000001,-0.785398159,-0.000000001,-2.356194490,-0.000000000,1.570796331,0.785398160,-0.000691615,-0.784706697,-0.000371968,-2.356779429,-0.000709728,1.570915114,0.785733067,-0.000000001,-0.785398159,-0.000000001,-2.356194490,-0.000000000,1.570796331,0.785398160,0.000000000,0.000000000,0.000000000,0.000000000,0.000000000,0.000000000,0.000000000,0.000000000,0.000000000,0.000000000,0.000000000,0.000000000,0.000000000,0.000000000,0.000000000,0.000000000,0.000000000,0.000000000,0.000000000,0.000000000,0.000000000,0,0,0,0,0,0,0,0.000000000,0.000000000,0.000000000
5199444099338,994019,1000000,4930424,1,0,0,0,0,0,0,0,0,0,0.000260000,0.180000000,-0.000689945,-0.784708368,-0.000373638,-2.356779429,-0.000712118,1.570915656,0.785732008,-0.000119549,-0.000915242,-0.000545409,-0.000996293,-0.000204464,0.000086478,0.000828124,-0.000000001,-0.785398159,-0.000000001,-2.356194490,-0.000000000,1.570796331,0.785398160,-0.000686325,-0.784705001,-0.000373638,-2.356777480,-0.000709728,1.570911931,0.785728159,-0.000000001,-0.785398159,-0.000000001,-2.356194490,-0.000000000,1.570796331,0.785398160,0.000000000,0.000000000,0.000000000,0.000000000,0.000000000,0.000000000,0.000000000,0.000000000,0.000000000,0.000000000,0.000000000,0.000000000,0.000000000,0.000000000,0.000000000,0.000000000,0.000000000,0.000000000,0.000000000,0.000000000,0.000000000,0,0,0,0,0,0,0,0.000000000,0.000000000,0.000000000
5199454118488,1038640,1000000,14949574,1,0,0,0,0,0,0,0,0,0,0.000260000,0.180000000,-0.000688274,-0.784708368,-0.000373612,-2.356775810,-0.000709016,1.570916185,0.785725565,0.000376009,-0.000454492,-0.000287313,0.000543193,0.000838416,0.000200740,-0.000740827,-0.000000001,-0.785398159,-0.000000001,-2.356194490,-0.000000000,1.570796331,0.785398160,-0.000686325,-0.784705001,-0.000373638,-2.356777480,-0.000709728,1.570911931,0.785728159,-0.000000001,-0.785398159,-0.000000001,-2.356194490,-0.000000000,1.570796331,0.785398160,0.000000000,0.000000000,0.000000000,0.000000000,0.000000000,0.000000000,0.000000000,0.000000000,0.000000000,0.000000000,0.000000000,0.000000000,0.000000000,0.000000000,0.000000000,0.000000000,0.000000000,0.000000000,0.000000000,0.000000000,0.000000000,0,0,0,0,0,0,0,0.000000000,0.000000000,0.000000000
5199464081237,997529,1000000,8189673,1,0,0,0,0,0,0,0,0,0,0.000260000,0.180000000,-0.000689945,-0.784708368,-0.000373638,-2.356775810,-0.000711051,1.570915822,0.785734839,-0.000232436,-0.001060288,-0.000616222,0.000811299,-0.000197073,-0.000060649,0.000771565,-0.000000001,-0.785398159,-0.000000001,-2.356194490,-0.000000000,1.570796331,0.785398160,-0.000689945,-0.784705027,-0.000371959,-2.356774139,-0.000710440,1.570915709,0.785730335,-0.000000001,-0.785398159,-0.000000001,-2.356194490,-0.000000000,1.570796331,0.785398160,0.000000000,0.000000000,0.000000000,0.000000000,0.000000000,0.000000000,0.000000000,0.000000000,0.000000000,0.000000000,0.000000000,0.000000000,0.000000000,0.000000000,0.000000000,0.000000000,0.000000000,0.000000000,0.000000000,0.000000000,0.000000000,0,0,0,0,0,0,0,0.000000000,0.000000000,0.000000000
5199476103534,984018,1000000,3487941,1,0,0,0,0,0,0,0,0,0,0.000260000,0.180000000,-0.000689945,-0.784705027,-0.000375587,-2.356775810,-0.000710440,1.570916521,0.785735534,0.000442702,0.000279456,-0.001132582,0.000976424,0.000284607,0.000216374,0.001005019,-0.000000001,-0.785398159,-0.000000001,-2.356194490,-0.000000000,1.570796331,0.785398160,-0.000689945,-0.784705018,-0.000373638,-2.356775810,-0.000709728,1.570911935,0.785724334,-0.000000001,-0.785398159,-0.000000001,-2.356194490,-0.000000000,1.570796331,0.785398160,0.000000000,0.000000000,0.000000000,0.000000000,0.000000000,0.000000000,0.000000000,0.000000000,0.000000000,0.000000000,0.000000000,0.000000000,0.000000000,0.000000000,0.000000000,0.000000000,0.000000000,0.000000000,0.000000000,0.000000000,0.000000000,0,0,0,0,0,0,0,0.000000000,0.000000000,0.000000000
5199486096714,1004569,1000000,13481121,1,0,0,0,0,0,0,0,0,0,0.000260000,0.180000000,-0.000690905,-0.784705027,-0.000373665,-2.356777480,-0.000709728,1.570916499,0.785730235,-0.000162962,0.000183321,-0.000320937,-0.000302676,0.000554163,0.000169082,0.000983206,-0.000000001,-0.785398159,-0.000000001,-2.356194490,-0.000000000,1.570796331,0.785398160,-0.000689945,-0.784705018,-0.000373638,-2.356775810,-0.000709728,1.570911935,0.785724334,-0.000000001,-0.785398159,-0.000000001,-2.356194490,-0.000000000,1.570796331,0.785398160,0.000000000,0.000000000,0.000000000,0.000000000,0.000000000,0.000000000,0.000000000,0.000000000,0.000000000,0.000000000,0.000000000,0.000000000,0.000000000,0.000000000,0.000000000,0.000000000,0.000000000,0.000000000,0.000000000,0.000000000,0.000000000,0,0,0,0,0,0,0,0.000000000,0.000000000,0.000000000
5199496167454,1063110,1000000,6828521,1,0,0,0,0,0,0,0,0,0,0.000260000,0.180000000,-0.000688264,-0.784705027,-0.000369837,-2.356779429,-0.000708406,1.570916538,0.785732315,0.000736959,0.000350398,0.000103319,-0.000481480,0.000816108,0.000366731,-0.000255099,-0.000000001,-0.785398159,-0.000000001,-2.356194490,-0.000000000,1.570796331,0.785398160,-0.000689222,-0.784707666,-0.000370298,-2.356777480,-0.000710440,1.570915472,0.785733706,-0.000000001,-0.785398159,-0.000000001,-2.356194490,-0.000000000,1.570796331,0.785398160,0.000000000,0.000000000,0.000000000,0.000000000,0.000000000,0.000000000,0.000000000,0.000000000,0.000000000,0.000000000,0.000000000,0.000000000,0.000000000,0.000000000,0.000000000,0.000000000,0.000000000,0.000000000,0.000000000,0.000000000,0.000000000,0,0,0,0,0,0,0,0.000000000,0.000000000,0.000000000
5199506096833,975899,1000000,35060,1,0,0,0,0,0,0,0,0,0,0.000260000,0.180000000,-0.000687577,-0.784706697,-0.000371968,-2.356777480,-0.000710440,1.570915826,0.785729937,0.000007688,-0.000687546,0.000100016,-0.000277425,0.000016950,-0.000166543,0.000077497,-0.000000001,-0.785398159,-0.000000001,-2.356194490,-0.000000000,1.570796331,0.785398160,-0.000689235,-0.784701408,-0.000375587,-2.356775810,-0.000710440,1.570917251,0.785731591,-0.000000001,-0.785398159,-0.000000001,-2.356194490,-0.000000000,1.570796331,0.785398160,0.000000000,0.000000000,0.000000000,0.000000000,0.000000000,0.000000000,0.000000000,0.000000000,0.000000000,0.000000000,0.000000000,0.000000000,0.000000000,0.000000000,0.000000000,0.000000000,0.000000000,0.000000000,0.000000000,0.000000000,0.000000000,0,0,0,0,0,0,0,0.000000000,0.000000000,0.000000000
5199516078312,992548,1000000,10016539,1,0,0,0,0,0,0,0,0,0,0.000260000,0.180000000,-0.000686324,-0.784708368,-0.000370297,-2.356775810,-0.000710440,1.570915114,0.785733010,0.000866045,-0.000426526,0.000263238,0.000645105,0.000137364,-0.000204459,0.000353032,-0.000000001,-0.785398159,-0.000000001,-2.356194490,-0.000000000,1.570796331,0.785398160,-0.000689235,-0.784701408,-0.000375587,-2.356775810,-0.000710440,1.570917251,0.785731591,-0.000000001,-0.785398159,-0.000000001,-2.356194490,-0.000000000,1.570796331,0.785398160,0.000000000,0.000000000,0.000000000,0.000000000,0.000000000,0.000000000,0.000000000,0.000000000,0.000000000,0.000000000,0.000000000,0.000000000,0.000000000,0.000000000,0.000000000,0.000000000,0.000000000,0.000000000,0.000000000,0.000000000,0.000000000,0,0,0,0,0,0,0,0.000000000,0.000000000,0.000000000
5199526093042,1005149,1000000,3307569,1,0,0,0,0,0,0,0,0,0,0.000260000,0.180000000,-0.000686325,-0.784705027,-0.000371968,-2.356773744,-0.000712475,1.570915469,0.785727582,0.001385964,0.000615187,0.000133039,0.000120383,-0.000053240,-0.000000844,-0.000499825,-0.000000001,-0.785398159,-0.000000001,-2.356194490,-0.000000000,1.570796331,0.785398160,-0.000688274,-0.784705027,-0.000373638,-2.356777480,-0.000711763,1.570915473,0.785724095,-0.000000001,-0.785398159,-0.000000001,-2.356194490,-0.000000000,1.570796331,0.785398160,0.000000000,0.000000000,0.000000000,0.000000000,0.000000000,0.000000000,0.000000000,0.000000000,0.000000000,0.000000000,0.000000000,0.000000000,0.000000000,0.000000000,0.000000000,0.000000000,0.000000000,0.000000000,0.000000000,0.000000000,0.000000000,0,0,0,0,0,0,0,0.000000000,0.000000000,0.000000000
5199536081451,999799,1000000,13295978,1,0,0,0,0,0,0,0,0,0,0.000260000,0.180000000,-0.000686299,-0.784705027,-0.000371968,-2.356777480,-0.000711051,1.570915826,0.785728289,0.001126659,0.000104588,-0.000304261,0.000278730,-0.000021150,-0.000003874,-0.000089510,-0.000000001,-0.785398159,-0.000000001,-2.356194490,-0.000000000,1.570796331,0.785398160,-0.000688274,-0.784705027,-0.000373638,-2.356777480,-0.000711763,1.570915473,0.785724095,-0.000000001,-0.785398159,-0.000000001,-2.356194490,-0.000000000,1.570796331,0.785398160,0.000000000,0.000000000,0.000000000,0.000000000,0.000000000,0.000000000,0.000000000,0.000000000,0.000000000,0.000000000,0.000000000,0.000000000,0.000000000,0.000000000,0.000000000,0.000000000,0.000000000,0.000000000,0.000000000,0.000000000,0.000000000,0,0,0,0,0,0,0,0.000000000,0.000000000,0.000000000
5199546119341,917628,1000000,6609949,1,0,0,0,0,0,0,0,0,0,0.000260000,0.180000000,-0.000689910,-0.784708368,-0.000371968,-2.356775810,-0.000710440,1.570916538,0.785732333,-0.000202314,-0.000870222,0.000034555,0.000517741,0.000516561,0.000227259,0.001462284,-0.000000001,-0.785398159,-0.000000001,-2.356194490,-0.000000000,1.570796331,0.785398160,-0.000691614,-0.784703078,-0.000373638,-2.356777480,-0.000713085,1.570916538,0.785735532,-0.000000001,-0.785398159,-0.000000001,-2.356194490,-0.000000000,1.570796331,0.785398160,0.000000000,0.000000000,0.000000000,0.000000000,0.000000000,0.000000000,0.000000000,0.000000000,0.000000000,0.000000000,0.000000000,0.000000000,0.000000000,0.000000000,0.000000000,0.000000000,0.000000000,0.000000000,0.000000000,0.000000000,0.000000000,0,0,0,0,0,0,0,0.000000000,0.000000000,0.000000000
5199556106360,1015009,1000000,16596968,1,0,0,0,0,0,0,0,0,0,0.000260000,0.180000000,-0.000689485,-0.784705027,-0.000371968,-2.356775810,-0.000711763,1.570917237,0.785730557,-0.000844738,0.000233343,0.000321481,0.000304853,-0.000032916,0.000265075,-0.001465027,-0.000000001,-0.785398159,-0.000000001,-2.356194490,-0.000000000,1.570796331,0.785398160,-0.000691614,-0.784703078,-0.000373638,-2.356777480,-0.000713085,1.570916538,0.785735532,-0.000000001,-0.785398159,-0.000000001,-2.356194490,-0.000000000,1.570796331,0.785398160,0.000000000,0.000000000,0.000000000,0.000000000,0.000000000,0.000000000,0.000000000,0.000000000,0.000000000,0.000000000,0.000000000,0.000000000,0.000000000,0.000000000,0.000000000,0.000000000,0.000000000,0.000000000,0.000000000,0.000000000,0.000000000,0,0,0,0,0,0,0,0.000000000,0.000000000,0.000000000
5199568098648,321083,1000000,11866197,1,0,0,0,0,0,0,0,0,0,0.000260000,0.180000000,-0.000688248,-0.784703078,-0.000372691,-2.356781100,-0.000709016,1.570915709,0.785725860,0.000838085,0.000703643,-0.000601696,-0.001615442,0.000397554,-0.000009057,-0.000657018,-0.000000001,-0.785398159,-0.000000001,-2.356194490,-0.000000000,1.570796331,0.785398160,-0.000689485,-0.784705027,-0.000371968,-2.356775810,-0.000711763,1.570917237,0.785730557,-0.000000001,-0.785398159,-0.000000001,-2.356194490,-0.000000000,1.570796331,0.785398160,0.000000000,0.000000000,0.000000000,0.000000000,0.000000000,0.000000000,0.000000000,0.000000000,0.000000000,0.000000000,0.000000000,0.000000000,0.000000000,0.000000000,0.000000000,0.000000000,0.000000000,0.000000000,0.000000000,0.000000000,0.000000000,0,0,0,0,0,0,0,0.000000000,0.000000000,0.000000000
5199578082327,1008209,1000000,5125326,1,0,0,0,0,0,0,0,0,0,0.000260000,0.180000000,-0.000689945,-0.784703078,-0.000371968,-2.356777480,-0.000709689,1.570916538,0.785734901,-0.000354751,0.001353472,0.000296586,0.000022661,0.000434435,0.000205993,0.001074156,-0.000000001,-0.785398159,-0.000000001,-2.356194490,-0.000000000,1.570796331,0.785398160,-0.000689944,-0.784706697,-0.000373627,-2.356777480,-0.000710440,1.570915472,0.785727335,-0.000000001,-0.785398159,-0.000000001,-2.356194490,-0.000000000,1.570796331,0.785398160,0.000000000,0.000000000,0.000000000,0.000000000,0.000000000,0.000000000,0.000000000,0.000000000,0.000000000,0.000000000,0.000000000,0.000000000,0.000000000,0.000000000,0.000000000,0.000000000,0.000000000,0.000000000,0.000000000,0.000000000,0.000000000,0,0,0,0,0,0,0,0.000000000,0.000000000,0.000000000
5199588084807,999789,1000000,15127806,1,0,0,0,0,0,0,0,0,0,0.000260000,0.180000000,-0.000689945,-0.784708368,-0.000370297,-2.356777480,-0.000709016,1.570916538,0.785732477,-0.000003257,-0.000808234,0.000421020,0.000053350,0.000716944,0.000193008,0.001002173,-0.000000001,-0.785398159,-0.000000001,-2.356194490,-0.000000000,1.570796331,0.785398160,-0.000689944,-0.784706697,-0.000373627,-2.356777480,-0.000710440,1.570915472,0.785727335,-0.000000001,-0.785398159,-0.000000001,-2.356194490,-0.000000000,1.570796331,0.785398160,0.000000000,0.000000000,0.000000000,0.000000000,0.000000000,0.000000000,0.000000000,0.000000000,0.000000000,0.000000000,0.000000000,0.000000000,0.000000000,0.000000000,0.000000000,0.000000000,0.000000000,0.000000000,0.000000000,0.000000000,0.000000000,0,0,0,0,0,0,0,0.000000000,0.000000000,0.000000000
5199598081207,995589,1000000,8401066,1,0,0,0,0,0,0,0,0,0,0.000260000,0.180000000,-0.000688274,-0.784705027,-0.000373629,-2.356777480,-0.000707694,1.570916416,0.785725264,0.000014456,0.000437165,-0.000188798,-0.000149751,0.000844101,0.000290686,-0.001042983,-0.000000001,-0.785398159,-0.000000001,-2.356194490,-0.000000000,1.570796331,0.785398160,-0.000689945,-0.784710038,-0.000371968,-2.356779429,-0.000711763,1.570915114,0.785731648,-0.000000001,-0.785398159,-0.000000001,-2.356194490,-0.000000000,1.570796331,0.785398160,0.000000000,0.000000000,0.000000000,0.000000000,0.000000000,0.000000000,0.000000000,0.000000000,0.000000000,0.000000000,0.000000000,0.000000000,0.000000000,0.000000000,0.000000000,0.000000000,0.000000000,0.000000000,0.000000000,0.000000000,0.000000000,0,0,0,0,0,0,0,0.000000000,0.000000000,0.000000000
5199608075036,1003579,1000000,1673375,1,0,0,0,0,0,0,0,0,0,0.000260000,0.180000000,-0.000689915,-0.784701408,-0.000373638,-2.356779429,-0.000711051,1.570915826,0.785734177,-0.000395371,0.001000477,-0.000268455,-0.000451444,-0.000225948,-0.000182118,0.000473891,-0.000000001,-0.785398159,-0.000000001,-2.356194490,-0.000000000,1.570796331,0.785398160,-0.000688011,-0.784703078,-0.000371968,-2.356779429,-0.000710440,1.570916538,0.785730057,-0.000000001,-0.785398159,-0.000000001,-2.356194490,-0.000000000,1.570796331,0.785398160,0.000000000,0.000000000,0.000000000,0.000000000,0.000000000,0.000000000,0.000000000,0.000000000,0.000000000,0.000000000,0.000000000,0.000000000,0.000000000,0.000000000,0.000000000,0.000000000,0.000000000,0.000000000,0.000000000,0.000000000,0.000000000,0,0,0,0,0,0,0,0.000000000,0.000000000,0.000000000
5199618074915,999969,1000000,11673254,1,0,0,0,0,0,0,0,0,0,0.000260000,0.180000000,-0.000691615,-0.784706697,-0.000370297,-2.356775810,-0.000711051,1.570913242,0.785728441,-0.000585592,-0.000451139,0.000416341,0.000993823,-0.000190200,0.000190740,-0.000667304,-0.000000001,-0.785398159,-0.000000001,-2.356194490,-0.000000000,1.570796331,0.785398160,-0.000688011,-0.784703078,-0.000371968,-2.356779429,-0.000710440,1.570916538,0.785730057,-0.000000001,-0.785398159,-0.000000001,-2.356194490,-0.000000000,1.570796331,0.785398160,0.000000000,0.000000000,0.000000000,0.000000000,0.000000000,0.000000000,0.000000000,0.000000000,0.000000000,0.000000000,0.000000000,0.000000000,0.000000000,0.000000000,0.000000000,0.000000000,0.000000000,0.000000000,0.000000000,0.000000000,0.000000000,0,0,0,0,0,0,0,0.000000000,0.000000000,0.000000000
5199628081745,980149,1000000,4958095,1,0,0,0,0,0,0,0,0,0,0.000260000,0.180000000,-0.000688195,-0.784706697,-0.000373638,-2.356777480,-0.000709728,1.570916185,0.785726991,0.000713816,-0.000398324,-0.000750283,0.000345288,0.000423898,0.000109970,-0.000597588,-0.000000001,-0.785398159,-0.000000001,-2.356194490,-0.000000000,1.570796331,0.785398160,-0.000689945,-0.784706697,-0.000371968,-2.356777480,-0.000712475,1.570916407,0.785730539,-0.000000001,-0.785398159,-0.000000001,-2.356194490,-0.000000000,1.570796331,0.785398160,0.000000000,0.000000000,0.000000000,0.000000000,0.000000000,0.000000000,0.000000000,0.000000000,0.000000000,0.000000000,0.000000000,0.000000000,0.000000000,0.000000000,0.000000000,0.000000000,0.000000000,0.000000000,0.000000000,0.000000000,0.000000000,0,0,0,0,0,0,0,0.000000000,0.000000000,0.000000000
5199638089014,1011419,1000000,14965364,1,0,0,0,0,0,0,0,0,0,0.000260000,0.180000000,-0.000689945,-0.784705027,-0.000371967,-2.356777480,-0.000709728,1.570915114,0.785734811,-0.000261289,0.000029529,0.000117288,0.000292131,0.000227180,-0.000168319,0.000868644,-0.000000001,-0.785398159,-0.000000001,-2.356194490,-0.000000000,1.570796331,0.785398160,-0.000689945,-0.784706697,-0.000371968,-2.356777480,-0.000712475,1.570916407,0.785730539,-0.000000001,-0.785398159,-0.000000001,-2.356194490,-0.000000000,1.570796331,0.785398160,0.000000000,0.000000000,0.000000000,0.000000000,0.000000000,0.000000000,0.000000000,0.000000000,0.000000000,0.000000000,0.000000000,0.000000000,0.000000000,0.000000000,0.000000000,0.000000000,0.000000000,0.000000000,0.000000000,0.000000000,0.000000000,0,0,0,0,0,0,0,0.000000000,0.000000000,0.000000000
5199648144354,1033919,1000000,8297594,1,0,0,0,0,0,0,0,0,0,0.000260000,0.180000000,-0.000689235,-0.784703078,-0.000373638,-2.356779429,-0.000711051,1.570915114,0.785730799,-0.000147221,0.000911771,-0.000372993,-0.000827125,0.000240148,-0.000129310,-0.000701646,-0.000000001,-0.785398159,-0.000000001,-2.356194490,-0.000000000,1.570796331,0.785398160,-0.000688274,-0.784705027,-0.000373638,-2.356775810,-0.000710440,1.570916538,0.785735613,-0.000000001,-0.785398159,-0.000000001,-2.356194490,-0.000000000,1.570796331,0.785398160,0.000000000,0.000000000,0.000000000,0.000000000,0.000000000,0.000000000,0.000000000,0.000000000,0.000000000,0.000000000,0.000000000,0.000000000,0.000000000,0.000000000,0.000000000,0.000000000,0.000000000,0.000000000,0.000000000,0.000000000,0.000000000,0,0,0,0,0,0,0,0.000000000,0.000000000,0.000000000
5199658086404,997259,1000000,1514254,1,0,0,0,0,0,0,0,0,0,0.000260000,0.180000000,-0.000691378,-0.784706697,-0.000373638,-2.356779429,-0.000711051,1.570914761,0.785732781,-0.000440636,0.000120782,-0.000249555,-0.000746410,0.000096914,-0.000334229,0.000602503,-0.000000001,-0.785398159,-0.000000001,-2.356194490,-0.000000000,1.570796331,0.785398160,-0.000687813,-0.784705027,-0.000373638,-2.356777480,-0.000711051,1.570911935,0.785725508,-0.000000001,-0.785398159,-0.000000001,-2.356194490,-0.000000000,1.570796331,0.785398160,0.000000000,0.000000000,0.000000000,0.000000000,0.000000000,0.000000000,0.000000000,0.000000000,0.000000000,0.000000000,0.000000000,0.000000000,0.000000000,0.000000000,0.000000000,0.000000000,0.000000000,0.000000000,0.000000000,0.000000000,0.000000000,0,0,0,0,0,0,0,0.000000000,0.000000000,0.000000000
5199668096033,987218,1000000,11523883,1,0,0,0,0,0,0,0,0,0,0.000260000,0.180000000,-0.000691433,-0.784706697,-0.000371968,-2.356777480,-0.000709016,1.570914765,0.785729041,-0.001069369,-0.000385832,-0.000138021,-0.000135944,0.000593037,-0.000097688,-0.000879037,-0.000000001,-0.785398159,-0.000000001,-2.356194490,-0.000000000,1.570796331,0.785398160,-0.000687813,-0.784705027,-0.000373638,-2.356777480,-0.000711051,1.570911935,0.785725508,-0.000000001,-0.785398159,-0.000000001,-2.356194490,-0.000000000,1.570796331,0.785398160,0.000000000,0.000000000,0.000000000,0.000000000,0.000000000,0.000000000,0.000000000,0.000000000,0.000000000,0.000000000,0.000000000,0.000000000,0.000000000,0.000000000,0.000000000,0.000000000,0.000000000,0.000000000,0.000000000,0.000000000,0.000000000,0,0,0,0,0,0,0,0.000000000,0.000000000,0.000000000
5199678083532,990459,1000000,4786753,1,0,0,0,0,0,0,0,0,0,0.000260000,0.180000000,-0.000689944,-0.784705027,-0.000371968,-2.356775810,-0.000710440,1.570916538,0.785730692,-0.000118706,0.000679967,0.000162701,0.000886595,0.000412827,0.000263340,0.000478614,-0.000000001,-0.785398159,-0.000000001,-2.356194490,-0.000000000,1.570796331,0.785398160,-0.000689673,-0.784708368,-0.000371968,-2.356779429,-0.000709728,1.570915822,0.785731251,-0.000000001,-0.785398159,-0.000000001,-2.356194490,-0.000000000,1.570796331,0.785398160,0.000000000,0.000000000,0.000000000,0.000000000,0.000000000,0.000000000,0.000000000,0.000000000,0.000000000,0.000000000,0.000000000,0.000000000,0.000000000,0.000000000,0.000000000,0.000000000,0.000000000,0.000000000,0.000000000,0.000000000,0.000000000,0,0,0,0,0,0,0,0.000000000,0.000000000,0.000000000
5199688098912,1005369,1000000,14802133,1,0,0,0,0,0,0,0,0,0,0.000260000,0.180000000,-0.000688274,-0.784708368,-0.000375587,-2.356777480,-0.000711051,1.570912647,0.785728102,0.000209430,-0.001241948,-0.000950201,-0.000216284,0.000088206,-0.000037905,-0.000107982,-0.000000001,-0.785398159,-0.000000001,-2.356194490,-0.000000000,1.570796331,0.785398160,-0.000689673,-0.784708368,-0.000371968,-2.356779429,-0.000709728,1.570915822,0.785731251,-0.000000001,-0.785398159,-0.000000001,-2.356194490,-0.000000000,1.570796331,0.785398160,0.000000000,0.000000000,0.000000000,0.000000000,0.000000000,0.000000000,0.000000000,0.000000000,0.000000000,0.000000000,0.000000000,0.000000000,0.000000000,0.000000000,0.000000000,0.000000000,0.000000000,0.000000000,0.000000000,0.000000000,0.000000000,0,0,0,0,0,0,0,0.000000000,0.000000000,0.000000000
5199698165682,1076169,1000000,8145373,1,0,0,0,0,0,0,0,0,0,0.000260000,0.180000000,-0.000689944,-0.784706697,-0.000370297,-2.356779429,-0.000711051,1.570915787,0.785731585,0.000072148,-0.000282277,0.000780404,-0.000425591,-0.000173282,-0.000129557,-0.000717550,-0.000000001,-0.785398159,-0.000000001,-2.356194490,-0.000000000,1.570796331,0.785398160,-0.000689945,-0.784706697,-0.000371968,-2.356781100,-0.000709016,1.570914767,0.785734123,-0.000000001,-0.785398159,-0.000000001,-2.356194490,-0.000000000,1.570796331,0.785398160,0.000000000,0.000000000,0.000000000,0.000000000,0.000000000,0.000000000,0.000000000,0.000000000,0.000000000,0.000000000,0.000000000,0.000000000,0.000000000,0.000000000,0.000000000,0.000000000,0.000000000,0.000000000,0.000000000,0.000000000,0.000000000,0,0,0,0,0,0,0,0.000000000,0.000000000,0.000000000
5199708116841,998439,1000000,1372402,1,0,0,0,0,0,0,0,0,0,0.000260000,0.180000000,-0.000693564,-0.784706697,-0.000375587,-2.356779429,-0.000709728,1.570916538,0.785733842,-0.001528942,-0.000755628,-0.000820072,-0.000984006,0.000079054,0.000153520,0.001105141,-0.000000001,-0.785398159,-0.000000001,-2.356194490,-0.000000000,1.570796331,0.785398160,-0.000686324,-0.784703078,-0.000373638,-2.356777480,-0.000709016,1.570916538,0.785730887,-0.000000001,-0.785398159,-0.000000001,-2.356194490,-0.000000000,1.570796331,0.785398160,0.000000000,0.000000000,0.000000000,0.000000000,0.000000000,0.000000000,0.000000000,0.000000000,0.000000000,0.000000000,0.000000000,0.000000000,0.000000000,0.000000000,0.000000000,0.000000000,0.000000000,0.000000000,0.000000000,0.000000000,0.000000000,0,0,0,0,0,0,0,0.000000000,0.000000000,0.000000000
5199718088791,982319,1000000,11344352,1,0,0,0,0,0,0,0,0,0,0.000260000,0.180000000,-0.000689945,-0.784703078,-0.000370297,-2.356777480,-0.000711763,1.570915826,0.785730425,-0.000031936,0.000686299,0.001241833,0.000036114,0.000007692,-0.000016613,-0.000506196,-0.000000001,-0.785398159,-0.000000001,-2.356194490,-0.000000000,1.570796331,0.785398160,-0.000686324,-0.784703078,-0.000373638,-2.356777480,-0.000709016,1.570916538,0.785730887,-0.000000001,-0.785398159,-0.000000001,-2.356194490,-0.000000000,1.570796331,0.785398160,0.000000000,0.000000000,0.000000000,0.000000000,0.000000000,0.000000000,0.000000000,0.000000000,0.000000000,0.000000000,0.000000000,0.000000000,0.000000000,0.000000000,0.000000000,0.000000000,0.000000000,0.000000000,0.000000000,0.000000000,0.000000000,0,0,0,0,0,0,0,0.000000000,0.000000000,0.000000000
5199728077910,978338,1000000,4610171,1,0,0,0,0,0,0,0,0,0,0.000260000,0.180000000,-0.000689705,-0.784706697,-0.000371968,-2.356779429,-0.000711051,1.570915826,0.785732309,-0.000030201,-0.000417624,-0.000191311,-0.000777703,-0.000315089,-0.000042338,0.001251951,-0.000000001,-0.785398159,-0.000000001,-2.356194490,-0.000000000,1.570796331,0.785398160,-0.000687564,-0.784706697,-0.000370297,-2.356779429,-0.000710440,1.570915114,0.785728811,-0.000000001,-0.785398159,-0.000000001,-2.356194490,-0.000000000,1.570796331,0.785398160,0.000000000,0.000000000,0.000000000,0.000000000,0.000000000,0.000000000,0.000000000,0.000000000,0.000000000,0.000000000,0.000000000,0.000000000,0.000000000,0.000000000,0.000000000,0.000000000,0.000000000,0.000000000,0.000000000,0.000000000,0.000000000,0,0,0,0,0,0,0,0.000000000,0.000000000,0.000000000
5199738104690,1034750,1000000,14636951,1,0,0,0,0,0,0,0,0,0,0.000260000,0.180000000,-0.000688239,-0.784705027,-0.000373638,-2.356779429,-0.000710440,1.570915114,0.785726647,0.000684409,0.000473453,-0.000582534,-0.000548860,-0.000145341,-0.000269254,-0.000725217,-0.000000001,-0.785398159,-0.000000001,-2.356194490,-0.000000000,1.570796331,0.785398160,-0.000687564,-0.784706697,-0.000370297,-2.356779429,-0.000710440,1.570915114,0.785728811,-0.000000001,-0.785398159,-0.000000001,-2.356194490,-0.000000000,1.570796331,0.785398160,0.000000000,0.000000000,0.000000000,0.000000000,0.000000000,0.000000000,0.000000000,0.000000000,0.000000000,0.000000000,0.000000000,0.000000000,0.000000000,0.000000000,0.000000000,0.000000000,0.000000000,0.000000000,0.000000000,0.000000000,0.000000000,0,0,0,0,0,0,0,0.000000000,0.000000000,0.000000000
5199748111059,1013909,1000000,7920761,1,0,0,0,0,0,0,0,0,0,0.000260000,0.180000000,-0.000687555,-0.784706697,-0.000370297,-2.356779429,-0.000709016,1.570912647,0.785728873,0.000473455,-0.000287904,0.000689522,-0.000526758,0.000536212,-0.000050313,0.000171893,-0.000000001,-0.785398159,-0.000000001,-2.356194490,-0.000000000,1.570796331,0.785398160,-0.000689941,-0.784705027,-0.000373638,-2.356777480,-0.000710440,1.570915826,0.785730192,-0.000000001,-0.785398159,-0.000000001,-2.356194490,-0.000000000,1.570796331,0.785398160,0.000000000,0.000000000,0.000000000,0.000000000,0.000000000,0.000000000,0.000000000,0.000000000,0.000000000,0.000000000,0.000000000,0.000000000,0.000000000,0.000000000,0.000000000,0.000000000,0.000000000,0.000000000,0.000000000,0.000000000,0.000000000,0,0,0,0,0,0,0,0.000000000,0.000000000,0.000000000
5199758119399,987999,1000000,1205601,1,0,0,0,0,0,0,0,0,0,0.000260000,0.180000000,-0.000691615,-0.784705018,-0.000371968,-2.356775810,-0.000709728,1.570915473,0.785729857,-0.000449449,-0.000021400,0.000045819,0.000558125,0.000383375,0.000044771,0.000569020,-0.000000001,-0.785398159,-0.000000001,-2.356194490,-0.000000000,1.570796331,0.785398160,-0.000689945,-0.784704949,-0.000373638,-2.356781100,-0.000711051,1.570912647,0.785729146,-0.000000001,-0.785398159,-0.000000001,-2.356194490,-0.000000000,1.570796331,0.785398160,0.000000000,0.000000000,0.000000000,0.000000000,0.000000000,0.000000000,0.000000000,0.000000000,0.000000000,0.000000000,0.000000000,0.000000000,0.000000000,0.000000000,0.000000000,0.000000000,0.000000000,0.000000000,0.000000000,0.000000000,0.000000000,0,0,0,0,0,0,0,0.000000000,0.000000000,0.000000000
5199768079028,965159,1000000,11165230,1,0,0,0,0,0,0,0,0,0,0.000260000,0.180000000,-0.000688248,-0.784706697,-0.000371968,-2.356779429,-0.000710440,1.570915114,0.785731934,0.000303554,-0.000403036,0.000312454,-0.000752563,0.000152648,-0.000345235,-0.000039485,-0.000000001,-0.785398159,-0.000000001,-2.356194490,-0.000000000,1.570796331,0.785398160,-0.000689945,-0.784704949,-0.000373638,-2.356781100,-0.000711051,1.570912647,0.785729146,-0.000000001,-0.785398159,-0.000000001,-2.356194490,-0.000000000,1.570796331,0.785398160,0.000000000,0.000000000,0.000000000,0.000000000,0.000000000,0.000000000,0.000000000,0.000000000,0.000000000,0.000000000,0.000000000,0.000000000,0.000000000,0.000000000,0.000000000,0.000000000,0.000000000,0.000000000,0.000000000,0.000000000,0.000000000,0,0,0,0,0,0,0,0.000000000,0.000000000,0.000000000
5199778066628,971529,1000000,4429850,1,0,0,0,0,0,0,0,0,0,0.000260000,0.180000000,-0.000688265,-0.784705027,-0.000370297,-2.356775810,-0.000711051,1.570916525,0.785734103,0.000883184,0.000119165,0.000882773,0.000389652,-0.000102089,0.000117688,0.000433017,-0.000000001,-0.785398159,-0.000000001,-2.356194490,-0.000000000,1.570796331,0.785398160,-0.000687814,-0.784705027,-0.000368349,-2.356777480,-0.000709016,1.570913360,0.785727230,-0.000000001,-0.785398159,-0.000000001,-2.356194490,-0.000000000,1.570796331,0.785398160,0.000000000,0.000000000,0.000000000,0.000000000,0.000000000,0.000000000,0.000000000,0.000000000,0.000000000,0.000000000,0.000000000,0.000000000,0.000000000,0.000000000,0.000000000,0.000000000,0.000000000,0.000000000,0.000000000,0.000000000,0.000000000,0,0,0,0,0,0,0,0.000000000,0.000000000,0.000000000
5199789098736,1000119,1000000,15461958,1,0,0,0,0,0,0,0,0,0,0.000260000,0.180000000,-0.000683958,-0.784706697,-0.000375587,-2.356775810,-0.000709728,1.570915787,0.785725509,0.001233346,-0.000328726,-0.000994171,0.000132475,0.000257816,-0.000083240,-0.001624471,-0.000000001,-0.785398159,-0.000000001,-2.356194490,-0.000000000,1.570796331,0.785398160,-0.000687814,-0.784705027,-0.000368349,-2.356777480,-0.000709016,1.570913360,0.785727230,-0.000000001,-0.785398159,-0.000000001,-2.356194490,-0.000000000,1.570796331,0.785398160,0.000000000,0.000000000,0.000000000,0.000000000,0.000000000,0.000000000,0.000000000,0.000000000,0.000000000,0.000000000,0.000000000,0.000000000,0.000000000,0.000000000,0.000000000,0.000000000,0.000000000,0.000000000,0.000000000,0.000000000,0.000000000,0,0,0,0,0,0,0,0.000000000,0.000000000,0.000000000
5199799116186,1038169,1000000,8756278,1,0,0,0,0,0,0,0,0,0,0.000260000,0.180000000,-0.000691378,-0.784703078,-0.000371968,-2.356777480,-0.000709728,1.570915826,0.785731362,-0.001146221,0.001163695,-0.000422386,0.000498830,0.000645596,-0.000132736,0.000697864,-0.000000001,-0.785398159,-0.000000001,-2.356194490,-0.000000000,1.570796331,0.785398160,-0.000687485,-0.784705027,-0.000373638,-2.356779429,-0.000710440,1.570915813,0.785730588,-0.000000001,-0.785398159,-0.000000001,-2.356194490,-0.000000000,1.570796331,0.785398160,0.000000000,0.000000000,0.000000000,0.000000000,0.000000000,0.000000000,0.000000000,0.000000000,0.000000000,0.000000000,0.000000000,0.000000000,0.000000000,0.000000000,0.000000000,0.000000000,0.000000000,0.000000000,0.000000000,0.000000000,0.000000000,0,0,0,0,0,0,0,0.000000000,0.000000000,0.000000000
5199809103845,1021509,1000000,2019578,1,0,0,0,0,0,0,0,0,0,0.000260000,0.180000000,-0.000688195,-0.784705027,-0.000371968,-2.356775810,-0.000711763,1.570916191,0.785730325,0.001055967,0.000094939,0.000463196,0.000911734,-0.000584997,0.000388805,0.000390109,-0.000000001,-0.785398159,-0.000000001,-2.356194490,-0.000000000,1.570796331,0.785398160,-0.000689485,-0.784705027,-0.000373638,-2.356779429,-0.000709016,1.570916538,0.785734460,-0.000000001,-0.785398159,-0.000000001,-2.356194490,-0.000000000,1.570796331,0.785398160,0.000000000,0.000000000,0.000000000,0.000000000,0.000000000,0.000000000,0.000000000,0.000000000,0.000000000,0.000000000,0.000000000,0.000000000,0.000000000,0.000000000,0.000000000,0.000000000,0.000000000,0.000000000,0.000000000,0.000000000,0.000000000,0,0,0,0,0,0,0,0.000000000,0.000000000,0.000000000
5199819094535,1001939,1000000,12010268,1,0,0,0,0,0,0,0,0,0,0.000260000,0.180000000,-0.000688274,-0.784703078,-0.000370297,-2.356775810,-0.000711051,1.570915826,0.785734456,0.000647402,0.001011011,0.000605015,0.000740928,-0.000335687,0.000000665,0.000367819,-0.000000001,-0.785398159,-0.000000001,-2.356194490,-0.000000000,1.570796331,0.785398160,-0.000689485,-0.784705027,-0.000373638,-2.356779429,-0.000709016,1.570916538,0.785734460,-0.000000001,-0.785398159,-0.000000001,-2.356194490,-0.000000000,1.570796331,0.785398160,0.000000000,0.000000000,0.000000000,0.000000000,0.000000000,0.000000000,0.000000000,0.000000000,0.000000000,0.000000000,0.000000000,0.000000000,0.000000000,0.000000000,0.000000000,0.000000000,0.000000000,0.000000000,0.000000000,0.000000000,0.000000000,0,0,0,0,0,0,0,0.000000000,0.000000000,0.000000000
5199829075444,1001519,1000000,5268517,1,0,0,0,0,0,0,0,0,0,0.000260000,0.180000000,-0.000689484,-0.784705027,-0.000371968,-2.356775810,-0.000713085,1.570915821,0.785733881,-0.000989882,0.000200015,0.000143620,0.000732935,-0.000603513,-0.000100360,0.000408392,-0.000000001,-0.785398159,-0.000000001,-2.356194490,-0.000000000,1.570796331,0.785398160,-0.000686089,-0.784705027,-0.000371968,-2.356777480,-0.000709728,1.570910876,0.785735652,-0.000000001,-0.785398159,-0.000000001,-2.356194490,-0.000000000,1.570796331,0.785398160,0.000000000,0.000000000,0.000000000,0.000000000,0.000000000,0.000000000,0.000000000,0.000000000,0.000000000,0.000000000,0.000000000,0.000000000,0.000000000,0.000000000,0.000000000,0.000000000,0.000000000,0.000000000,0.000000000,0.000000000,0.000000000,0,0,0,0,0,0,0,0.000000000,0.000000000,0.000000000
5199839086614,997149,1000000,15279687,1,0,0,0,0,0,0,0,0,0,0.000260000,0.180000000,-0.000689942,-0.784705027,-0.000371968,-2.356775810,-0.000712475,1.570915809,0.785728878,0.000091096,0.000302709,0.000194799,0.000266821,-0.000832744,-0.000029018,0.000170529,-0.000000001,-0.785398159,-0.000000001,-2.356194490,-0.000000000,1.570796331,0.785398160,-0.000686089,-0.784705027,-0.000371968,-2.356777480,-0.000709728,1.570910876,0.785735652,-0.000000001,-0.785398159,-0.000000001,-2.356194490,-0.000000000,1.570796331,0.785398160,0.000000000,0.000000000,0.000000000,0.000000000,0.000000000,0.000000000,0.000000000,0.000000000,0.000000000,0.000000000,0.000000000,0.000000000,0.000000000,0.000000000,0.000000000,0.000000000,0.000000000,0.000000000,0.000000000,0.000000000,0.000000000,0,0,0,0,0,0,0,0.000000000,0.000000000,0.000000000
5199849081933,1007749,1000000,8551016,1,0,0,0,0,0,0,0,0,0,0.000260000,0.180000000,-0.000689945,-0.784706697,-0.000371968,-2.356777480,-0.000711051,1.570915787,0.785735147,0.000313183,-0.000533231,0.000484602,-0.000139458,-0.000046808,-0.000083964,0.001344280,-0.000000001,-0.785398159,-0.000000001,-2.356194490,-0.000000000,1.570796331,0.785398160,-0.000686143,-0.784705027,-0.000373638,-2.356779429,-0.000710440,1.570915821,0.785728312,-0.000000001,-0.785398159,-0.000000001,-2.356194490,-0.000000000,1.570796331,0.785398160,0.000000000,0.000000000,0.000000000,0.000000000,0.000000000,0.000000000,0.000000000,0.000000000,0.000000000,0.000000000,0.000000000,0.000000000,0.000000000,0.000000000,0.000000000,0.000000000,0.000000000,0.000000000,0.000000000,0.000000000,0.000000000,0,0,0,0,0,0,0,0.000000000,0.000000000,0.000000000
5199859122713,1018369,1000000,1867577,1,0,0,0,0,0,0,0,0,0,0.000260000,0.180000000,-0.000689918,-0.784705027,-0.000373638,-2.356779429,-0.000711051,1.570913701,0.785725463,0.000040915,0.000123032,-0.000394092,-0.000944173,-0.000309269,-0.000253484,-0.000874552,-0.000000001,-0.785398159,-0.000000001,-2.356194490,-0.000000000,1.570796331,0.785398160,-0.000689708,-0.784705027,-0.000370297,-2.356775810,-0.000711051,1.570912647,0.785734231,-0.000000001,-0.785398159,-0.000000001,-2.356194490,-0.000000000,1.570796331,0.785398160,0.000000000,0.000000000,0.000000000,0.000000000,0.000000000,0.000000000,0.000000000,0.000000000,0.000000000,0.000000000,0.000000000,0.000000000,0.000000000,0.000000000,0.000000000,0.000000000,0.000000000,0.000000000,0.000000000,0.000000000,0.000000000,0,0,0,0,0,0,0,0.000000000,0.000000000,0.000000000
5199869103692,1001478,1000000,11848556,1,0,0,0,0,0,0,0,0,0,0.000260000,0.180000000,-0.000689156,-0.784706697,-0.000370297,-2.356779676,-0.000711763,1.570915770,0.785729938,0.000182674,-0.000146214,0.000389240,-0.000859088,-0.000223045,-0.000051836,0.000461199,-0.000000001,-0.785398159,-0.000000001,-2.356194490,-0.000000000,1.570796331,0.785398160,-0.000689708,-0.784705027,-0.000370297,-2.356775810,-0.000711051,1.570912647,0.785734231,-0.000000001,-0.785398159,-0.000000001,-2.356194490,-0.000000000,1.570796331,0.785398160,0.000000000,0.000000000,0.000000000,0.000000000,0.000000000,0.000000000,0.000000000,0.000000000,0.000000000,0.000000000,0.000000000,0.000000000,0.000000000,0.000000000,0.000000000,0.000000000,0.000000000,0.000000000,0.000000000,0.000000000,0.000000000,0,0,0,0,0,0,0,0.000000000,0.000000000,0.000000000
5199880073181,974489,1000000,6092885,1,0,0,0,0,0,0,0,0,0,0.000260000,0.180000000,-0.000691615,-0.784708359,-0.000371959,-2.356779429,-0.000710440,1.570913355,0.785731995,-0.000540584,-0.001184396,0.000354388,-0.001050688,0.000277723,0.000093826,0.001282211,-0.000000001,-0.785398159,-0.000000001,-2.356194490,-0.000000000,1.570796331,0.785398160,-0.000689146,-0.784703078,-0.000370297,-2.356775813,-0.000710440,1.570914648,0.785735252,-0.000000001,-0.785398159,-0.000000001,-2.356194490,-0.000000000,1.570796331,0.785398160,0.000000000,0.000000000,0.000000000,0.000000000,0.000000000,0.000000000,0.000000000,0.000000000,0.000000000,0.000000000,0.000000000,0.000000000,0.000000000,0.000000000,0.000000000,0.000000000,0.000000000,0.000000000,0.000000000,0.000000000,0.000000000,0,0,0,0,0,0,0,0.000000000,0.000000000,0.000000000
5199890099861,1021970,1000000,16119565,1,0,0,0,0,0,0,0,0,0,0.000260000,0.180000000,-0.000686132,-0.784703078,-0.000368270,-2.356775810,-0.000711763,1.570912294,0.785732994,0.000595670,0.001263993,0.001432179,0.000164677,-0.000516501,0.000014989,0.000326714,-0.000000001,-0.785398159,-0.000000001,-2.356194490,-0.000000000,1.570796331,0.785398160,-0.000689146,-0.784703078,-0.000370297,-2.356775813,-0.000710440,1.570914648,0.785735252,-0.000000001,-0.785398159,-0.000000001,-2.356194490,-0.000000000,1.570796331,0.785398160,0.000000000,0.000000000,0.000000000,0.000000000,0.000000000,0.000000000,0.000000000,0.000000000,0.000000000,0.000000000,0.000000000,0.000000000,0.000000000,0.000000000,0.000000000,0.000000000,0.000000000,0.000000000,0.000000000,0.000000000,0.000000000,0,0,0,0,0,0,0,0.000000000,0.000000000,0.000000000
5199900093240,1022709,1000000,9388474,1,0,0,0,0,0,0,0,0,0,0.000260000,0.180000000,-0.000688271,-0.784705027,-0.000371968,-2.356777480,-0.000710440,1.570912647,0.785729982,0.000373928,0.000087286,0.000338099,0.000501227,-0.000116384,-0.000206445,0.000753939,-0.000000001,-0.785398159,-0.000000001,-2.356194490,-0.000000000,1.570796331,0.785398160,-0.000686132,-0.784703078,-0.000368270,-2.356775810,-0.000711763,1.570912294,0.785732994,-0.000000001,-0.785398159,-0.000000001,-2.356194490,-0.000000000,1.570796331,0.785398160,0.000000000,0.000000000,0.000000000,0.000000000,0.000000000,0.000000000,0.000000000,0.000000000,0.000000000,0.000000000,0.000000000,0.000000000,0.000000000,0.000000000,0.000000000,0.000000000,0.000000000,0.000000000,0.000000000,0.000000000,0.000000000,0,0,0,0,0,0,0,0.000000000,0.000000000,0.000000000
5199910087149,1018539,1000000,2658274,1,0,0,0,0,0,0,0,0,0,0.000260000,0.180000000,-0.000688274,-0.784706697,-0.000373638,-2.356775810,-0.000711763,1.570916499,0.785729028,0.000170561,-0.000395352,-0.000445516,0.000291978,-0.000219294,0.000007575,-0.000805491,-0.000000001,-0.785398159,-0.000000001,-2.356194490,-0.000000000,1.570796331,0.785398160,-0.000689945,-0.784705027,-0.000377258,-2.356777480,-0.000712475,1.570912643,0.785729493,-0.000000001,-0.785398159,-0.000000001,-2.356194490,-0.000000000,1.570796331,0.785398160,0.000000000,0.000000000,0.000000000,0.000000000,0.000000000,0.000000000,0.000000000,0.000000000,0.000000000,0.000000000,0.000000000,0.000000000,0.000000000,0.000000000,0.000000000,0.000000000,0.000000000,0.000000000,0.000000000,0.000000000,0.000000000,0,0,0,0,0,0,0,0.000000000,0.000000000,0.000000000
5199920071209,963479,1000000,12642334,1,0,0,0,0,0,0,0,0,0,0.000260000,0.180000000,-0.000686314,-0.784705027,-0.000371968,-2.356775810,-0.000711051,1.570916421,0.785730193,0.000961770,-0.000154440,0.000178585,0.000203680,-0.000347495,0.000393382,0.000637909,-0.000000001,-0.785398159,-0.000000001,-2.356194490,-0.000000000,1.570796331,0.785398160,-0.000689945,-0.784705027,-0.000377258,-2.356777480,-0.000712475,1.570912643,0.785729493,-0.000000001,-0.785398159,-0.000000001,-2.356194490,-0.000000000,1.570796331,0.785398160,0.000000000,0.000000000,0.000000000,0.000000000,0.000000000,0.000000000,0.000000000,0.000000000,0.000000000,0.000000000,0.000000000,0.000000000,0.000000000,0.000000000,0.000000000,0.000000000,0.000000000,0.000000000,0.000000000,0.000000000,0.000000000,0,0,0,0,0,0,0,0.000000000,0.000000000,0.000000000
5199930090148,1018579,1000000,5934153,1,0,0,0,0,0,0,0,0,0,0.000260000,0.180000000,-0.000689945,-0.784705027,-0.000373638,-2.356774139,-0.000711051,1.570917251,0.785732665,-0.000086331,0.000792610,-0.000071897,0.001294731,-0.000253003,0.000631980,-0.000064247,-0.000000001,-0.785398159,-0.000000001,-2.356194490,-0.000000000,1.570796331,0.785398160,-0.000689945,-0.784708368,-0.000371968,-2.356777480,-0.000708406,1.570915113,0.785730284,-0.000000001,-0.785398159,-0.000000001,-2.356194490,-0.000000000,1.570796331,0.785398160,0.000000000,0.000000000,0.000000000,0.000000000,0.000000000,0.000000000,0.000000000,0.000000000,0.000000000,0.000000000,0.000000000,0.000000000,0.000000000,0.000000000,0.000000000,0.000000000,0.000000000,0.000000000,0.000000000,0.000000000,0.000000000,0,0,0,0,0,0,0,0.000000000,0.000000000,0.000000000
5199940090128,967239,1000000,15934133,1,0,0,0,0,0,0,0,0,0,0.000260000,0.180000000,-0.000689944,-0.784706697,-0.000371967,-2.356777480,-0.000710440,1.570916538,0.785729817,-0.000171882,-0.000184580,-0.000275244,-0.000156815,0.000324529,-0.000028076,-0.000854763,-0.000000001,-0.785398159,-0.000000001,-2.356194490,-0.000000000,1.570796331,0.785398160,-0.000689945,-0.784708368,-0.000371968,-2.356777480,-0.000708406,1.570915113,0.785730284,-0.000000001,-0.785398159,-0.000000001,-2.356194490,-0.000000000,1.570796331,0.785398160,0.000000000,0.000000000,0.000000000,0.000000000,0.000000000,0.000000000,0.000000000,0.000000000,0.000000000,0.000000000,0.000000000,0.000000000,0.000000000,0.000000000,0.000000000,0.000000000,0.000000000,0.000000000,0.000000000,0.000000000,0.000000000,0,0,0,0,0,0,0,0.000000000,0.000000000,0.000000000
5199950133648,1067070,1000000,9254053,1,0,0,0,0,0,0,0,0,0,0.000260000,0.180000000,-0.000689839,-0.784706697,-0.000375587,-2.356775810,-0.000709728,1.570915826,0.785733365,-0.000244182,-0.000312315,-0.001159232,0.000899939,0.000503570,-0.000119992,0.000044272,-0.000000001,-0.785398159,-0.000000001,-2.356194490,-0.000000000,1.570796331,0.785398160,-0.000689944,-0.784706697,-0.000371967,-2.356777480,-0.000710440,1.570916538,0.785729817,-0.000000001,-0.785398159,-0.000000001,-2.356194490,-0.000000000,1.570796331,0.785398160,0.000000000,0.000000000,0.000000000,0.000000000,0.000000000,0.000000000,0.000000000,0.000000000,0.000000000,0.000000000,0.000000000,0.000000000,0.000000000,0.000000000,0.000000000,0.000000000,0.000000000,0.000000000,0.000000000,0.000000000,0.000000000,0,0,0,0,0,0,0,0.000000000,0.000000000,0.000000000
5199960070477,947718,1000000,2467462,1,0,0,0,0,0,0,0,0,0,0.000260000,0.180000000,-0.000689945,-0.784705027,-0.000373638,-2.356779429,-0.000711763,1.570916538,0.785734181,0.000033277,0.000581580,-0.000602295,-0.000892046,-0.000471992,0.000203587,0.000165305,-0.000000001,-0.785398159,-0.000000001,-2.356194490,-0.000000000,1.570796331,0.785398160,-0.000689945,-0.784706697,-0.000373638,-2.356772191,-0.000710440,1.570916538,0.785728434,-0.000000001,-0.785398159,-0.000000001,-2.356194490,-0.000000000,1.570796331,0.785398160,0.000000000,0.000000000,0.000000000,0.000000000,0.000000000,0.000000000,0.000000000,0.000000000,0.000000000,0.000000000,0.000000000,0.000000000,0.000000000,0.000000000,0.000000000,0.000000000,0.000000000,0.000000000,0.000000000,0.000000000,0.000000000,0,0,0,0,0,0,0,0.000000000,0.000000000,0.000000000
